;Generated with Cura_SteamEngine 15.01
; Default start code
G28 ; Home extruder
G1 Z15 F400
M107 ; Turn off fan
G90 ; Absolute positioning
M82 ; Extruder in absolute mode
M190 S50
; Activate all used extruder
M104 T0 S195
G92 E0 ; Reset extruder position
; Wait for all used extruders to reach temperature
M109 T0 S195
;Layer count: 25
;LAYER:-2
;RAFT
G0 F9000 X42.598 Y60.546 Z0.300
;TYPE:SUPPORT
G1 F1800 X43.245 Y60.091 E0.03946
G1 X43.961 Y59.759 E0.07884
G1 X44.716 Y59.557 E0.11783
G1 X45.369 Y59.500 E0.15053
G1 X104.632 Y59.500 E3.10717
G1 X105.283 Y59.557 E3.13978
G1 X106.036 Y59.758 E3.17866
G1 X106.756 Y60.091 E3.21824
G1 X107.404 Y60.548 E3.25780
G1 X107.953 Y61.098 E3.29657
G1 X108.408 Y61.745 E3.33603
G1 X108.740 Y62.461 E3.37540
G1 X108.940 Y63.211 E3.41413
G1 X109.000 Y63.863 E3.44679
G1 X109.000 Y86.138 E4.55810
G1 X108.940 Y86.789 E4.59071
G1 X108.741 Y87.536 E4.62928
G1 X108.408 Y88.256 E4.66886
G1 X107.951 Y88.904 E4.70842
G1 X107.404 Y89.451 E4.74701
G1 X106.756 Y89.908 E4.78657
G1 X106.036 Y90.241 E4.82615
G1 X105.289 Y90.440 E4.86472
G1 X104.638 Y90.500 E4.89733
G1 X45.363 Y90.500 E7.85457
G1 X44.711 Y90.440 E7.88724
G1 X43.961 Y90.240 E7.92597
G1 X43.245 Y89.908 E7.96534
G1 X42.598 Y89.453 E8.00480
G1 X42.048 Y88.904 E8.04357
G1 X41.591 Y88.256 E8.08313
G1 X41.258 Y87.536 E8.12271
G1 X41.057 Y86.783 E8.16159
G1 X41.000 Y86.132 E8.19419
G1 X41.000 Y63.869 E9.30490
G1 X41.057 Y63.216 E9.33760
G1 X41.259 Y62.461 E9.37659
G1 X41.591 Y61.745 E9.41597
G1 X42.046 Y61.098 E9.45543
G1 X42.598 Y60.546 E9.49438
G0 F9000 X42.500 Y60.559
G1 F1800 X42.500 Y89.440 E10.93526
G0 F9000 X43.500 Y90.092
G1 F1800 X43.500 Y59.906 E12.44124
G0 F9000 X44.500 Y59.552
G1 F1800 X44.500 Y90.445 E13.98250
G0 F9000 X45.500 Y90.560
G1 F1800 X45.500 Y59.440 E15.53508
G0 F9000 X46.500 Y59.440
G1 F1800 X46.500 Y90.560 E17.08767
G0 F9000 X47.500 Y90.560
G1 F1800 X47.500 Y59.440 E18.64025
G0 F9000 X48.500 Y59.440
G1 F1800 X48.500 Y90.560 E20.19283
G0 F9000 X49.500 Y90.560
G1 F1800 X49.500 Y59.440 E21.74542
G0 F9000 X50.500 Y59.440
G1 F1800 X50.500 Y90.560 E23.29800
G0 F9000 X51.500 Y90.560
G1 F1800 X51.500 Y59.440 E24.85058
G0 F9000 X52.500 Y59.440
G1 F1800 X52.500 Y90.560 E26.40316
G0 F9000 X53.500 Y90.560
G1 F1800 X53.500 Y59.440 E27.95575
G0 F9000 X54.500 Y59.440
G1 F1800 X54.500 Y90.560 E29.50833
G0 F9000 X55.500 Y90.560
G1 F1800 X55.500 Y59.440 E31.06091
G0 F9000 X56.500 Y59.440
G1 F1800 X56.500 Y90.560 E32.61350
G0 F9000 X57.500 Y90.560
G1 F1800 X57.500 Y59.440 E34.16608
G0 F9000 X58.500 Y59.440
G1 F1800 X58.500 Y90.560 E35.71866
G0 F9000 X59.500 Y90.560
G1 F1800 X59.500 Y59.440 E37.27125
G0 F9000 X60.500 Y59.440
G1 F1800 X60.500 Y90.560 E38.82383
G0 F9000 X61.500 Y90.560
G1 F1800 X61.500 Y59.440 E40.37641
G0 F9000 X62.500 Y59.440
G1 F1800 X62.500 Y90.560 E41.92900
G0 F9000 X63.500 Y90.560
G1 F1800 X63.500 Y59.440 E43.48158
G0 F9000 X64.500 Y59.440
G1 F1800 X64.500 Y90.560 E45.03416
G0 F9000 X65.500 Y90.560
G1 F1800 X65.500 Y59.440 E46.58674
G0 F9000 X66.500 Y59.440
G1 F1800 X66.500 Y90.560 E48.13933
G0 F9000 X67.500 Y90.560
G1 F1800 X67.500 Y59.440 E49.69191
G0 F9000 X68.500 Y59.440
G1 F1800 X68.500 Y90.560 E51.24449
G0 F9000 X69.500 Y90.560
G1 F1800 X69.500 Y59.440 E52.79708
G0 F9000 X70.500 Y59.440
G1 F1800 X70.500 Y90.560 E54.34966
G0 F9000 X71.500 Y90.560
G1 F1800 X71.500 Y59.440 E55.90224
G0 F9000 X72.500 Y59.440
G1 F1800 X72.500 Y90.560 E57.45483
G0 F9000 X73.500 Y90.560
G1 F1800 X73.500 Y59.440 E59.00741
G0 F9000 X74.500 Y59.440
G1 F1800 X74.500 Y90.560 E60.55999
G0 F9000 X75.500 Y90.560
G1 F1800 X75.500 Y59.440 E62.11258
G0 F9000 X76.500 Y59.440
G1 F1800 X76.500 Y90.560 E63.66516
G0 F9000 X77.500 Y90.560
G1 F1800 X77.500 Y59.440 E65.21774
G0 F9000 X78.500 Y59.440
G1 F1800 X78.500 Y90.560 E66.77033
G0 F9000 X79.500 Y90.560
G1 F1800 X79.500 Y59.440 E68.32291
G0 F9000 X80.500 Y59.440
G1 F1800 X80.500 Y90.560 E69.87549
G0 F9000 X81.500 Y90.560
G1 F1800 X81.500 Y59.440 E71.42807
G0 F9000 X82.500 Y59.440
G1 F1800 X82.500 Y90.560 E72.98066
G0 F9000 X83.500 Y90.560
G1 F1800 X83.500 Y59.440 E74.53324
G0 F9000 X84.500 Y59.440
G1 F1800 X84.500 Y90.560 E76.08582
G0 F9000 X85.500 Y90.560
G1 F1800 X85.500 Y59.440 E77.63841
G0 F9000 X86.500 Y59.440
G1 F1800 X86.500 Y90.560 E79.19099
G0 F9000 X87.500 Y90.560
G1 F1800 X87.500 Y59.440 E80.74357
G0 F9000 X88.500 Y59.440
G1 F1800 X88.500 Y90.560 E82.29616
G0 F9000 X89.500 Y90.560
G1 F1800 X89.500 Y59.440 E83.84874
G0 F9000 X90.500 Y59.440
G1 F1800 X90.500 Y90.560 E85.40132
G0 F9000 X91.500 Y90.560
G1 F1800 X91.500 Y59.440 E86.95391
G0 F9000 X92.500 Y59.440
G1 F1800 X92.500 Y90.560 E88.50649
G0 F9000 X93.500 Y90.560
G1 F1800 X93.500 Y59.440 E90.05907
G0 F9000 X94.500 Y59.440
G1 F1800 X94.500 Y90.560 E91.61165
G0 F9000 X95.500 Y90.560
G1 F1800 X95.500 Y59.440 E93.16424
G0 F9000 X96.500 Y59.440
G1 F1800 X96.500 Y90.560 E94.71682
G0 F9000 X97.500 Y90.560
G1 F1800 X97.500 Y59.440 E96.26940
G0 F9000 X98.500 Y59.440
G1 F1800 X98.500 Y90.560 E97.82199
G0 F9000 X99.500 Y90.560
G1 F1800 X99.500 Y59.440 E99.37457
G0 F9000 X100.500 Y59.440
G1 F1800 X100.500 Y90.560 E100.92715
G0 F9000 X101.500 Y90.560
G1 F1800 X101.500 Y59.440 E102.47974
G0 F9000 X102.500 Y59.440
G1 F1800 X102.500 Y90.560 E104.03232
G0 F9000 X103.500 Y90.560
G1 F1800 X103.500 Y59.440 E105.58490
G0 F9000 X104.500 Y59.440
G1 F1800 X104.500 Y90.560 E107.13749
G0 F9000 X105.500 Y90.446
G1 F1800 X105.500 Y59.554 E108.67869
G0 F9000 X106.500 Y59.907
G1 F1800 X106.500 Y90.093 E110.18468
G0 F9000 X107.500 Y89.440
G1 F1800 X107.500 Y60.560 E111.62551
G0 F9000 X108.500 Y61.802
G1 F1800 X108.500 Y88.200 E112.94251
G0 F9000 X41.500 Y88.201
G1 F1800 X41.500 Y61.798 E114.25976
M106 S255
;LAYER:-1
;RAFT
G0 F9000 X41.598 Y61.680 Z0.500
;TYPE:SUPPORT
G1 F1800 X70.447 Y90.529 E114.93825
G0 F9000 X69.881 Y90.529
G1 F1800 X41.411 Y62.059 E115.60782
G0 F9000 X41.232 Y62.446
G1 F1800 X69.316 Y90.529 E116.26830
G0 F9000 X68.750 Y90.529
G1 F1800 X41.112 Y62.891 E116.91830
G0 F9000 X41.013 Y63.358
G1 F1800 X68.184 Y90.529 E117.55732
G0 F9000 X67.619 Y90.529
G1 F1800 X40.969 Y63.880 E118.18408
G0 F9000 X40.969 Y64.445
G1 F1800 X67.053 Y90.529 E118.79753
G0 F9000 X66.487 Y90.529
G1 F1800 X40.969 Y65.011 E119.39768
G0 F9000 X40.969 Y65.577
G1 F1800 X65.922 Y90.529 E119.98452
G0 F9000 X65.356 Y90.529
G1 F1800 X40.969 Y66.142 E120.55807
G0 F9000 X40.969 Y66.708
G1 F1800 X64.790 Y90.529 E121.11830
G0 F9000 X64.225 Y90.529
G1 F1800 X40.969 Y67.274 E121.66523
G0 F9000 X40.969 Y67.839
G1 F1800 X63.659 Y90.529 E122.19887
G0 F9000 X63.093 Y90.529
G1 F1800 X40.969 Y68.405 E122.71919
G0 F9000 X40.969 Y68.971
G1 F1800 X62.528 Y90.529 E123.22621
G0 F9000 X61.962 Y90.529
G1 F1800 X40.969 Y69.536 E123.71994
G0 F9000 X40.969 Y70.102
G1 F1800 X61.396 Y90.529 E124.20035
G0 F9000 X60.830 Y90.529
G1 F1800 X40.969 Y70.668 E124.66745
G0 F9000 X40.969 Y71.233
G1 F1800 X60.265 Y90.529 E125.12126
G0 F9000 X71.013 Y90.529
G1 F1800 X41.832 Y61.348 E125.80755
G0 F9000 X42.075 Y61.026
G1 F1800 X71.579 Y90.529 E126.50143
G0 F9000 X72.144 Y90.529
G1 F1800 X42.358 Y60.743 E127.20195
G0 F9000 X42.652 Y60.471
G1 F1800 X72.710 Y90.529 E127.90887
G0 F9000 X73.276 Y90.529
G1 F1800 X42.984 Y60.237 E128.62129
G0 F9000 X43.330 Y60.018
G1 F1800 X73.841 Y90.529 E129.33886
G0 F9000 X74.407 Y90.529
G1 F1800 X43.717 Y59.839 E130.06064
G0 F9000 X44.127 Y59.684
G1 F1800 X74.973 Y90.529 E130.78608
G0 F9000 X75.538 Y90.529
G1 F1800 X44.573 Y59.563 E131.51434
G0 F9000 X45.070 Y59.495
G1 F1800 X76.104 Y90.529 E132.24422
G0 F9000 X76.670 Y90.529
G1 F1800 X45.610 Y59.469 E132.97470
G0 F9000 X46.176 Y59.469
G1 F1800 X77.235 Y90.529 E133.70517
G0 F9000 X77.801 Y90.529
G1 F1800 X46.741 Y59.469 E134.43565
G0 F9000 X47.307 Y59.469
G1 F1800 X78.367 Y90.529 E135.16614
G0 F9000 X78.932 Y90.529
G1 F1800 X47.873 Y59.469 E135.89661
G0 F9000 X48.438 Y59.469
G1 F1800 X79.498 Y90.529 E136.62709
G0 F9000 X80.064 Y90.529
G1 F1800 X49.004 Y59.469 E137.35758
G0 F9000 X49.570 Y59.469
G1 F1800 X80.629 Y90.529 E138.08805
G0 F9000 X81.195 Y90.529
G1 F1800 X50.135 Y59.469 E138.81853
G0 F9000 X50.701 Y59.469
G1 F1800 X81.761 Y90.529 E139.54902
G0 F9000 X82.327 Y90.529
G1 F1800 X51.267 Y59.469 E140.27950
G0 F9000 X51.833 Y59.469
G1 F1800 X82.892 Y90.529 E141.00997
G0 F9000 X83.458 Y90.529
G1 F1800 X52.398 Y59.469 E141.74045
G0 F9000 X52.964 Y59.469
G1 F1800 X84.024 Y90.529 E142.47094
G0 F9000 X84.589 Y90.529
G1 F1800 X53.530 Y59.469 E143.20141
G0 F9000 X54.095 Y59.469
G1 F1800 X85.155 Y90.529 E143.93189
G0 F9000 X85.721 Y90.529
G1 F1800 X54.661 Y59.469 E144.66238
G0 F9000 X55.227 Y59.469
G1 F1800 X86.286 Y90.529 E145.39285
G0 F9000 X86.852 Y90.529
G1 F1800 X55.792 Y59.469 E146.12333
G0 F9000 X56.358 Y59.469
G1 F1800 X87.418 Y90.529 E146.85382
G0 F9000 X87.983 Y90.529
G1 F1800 X56.924 Y59.469 E147.58429
G0 F9000 X57.489 Y59.469
G1 F1800 X88.549 Y90.529 E148.31477
G0 F9000 X89.115 Y90.529
G1 F1800 X58.055 Y59.469 E149.04526
G0 F9000 X58.621 Y59.469
G1 F1800 X89.680 Y90.529 E149.77573
G0 F9000 X90.246 Y90.529
G1 F1800 X59.186 Y59.469 E150.50621
G0 F9000 X59.752 Y59.469
G1 F1800 X90.812 Y90.529 E151.23669
G0 F9000 X91.377 Y90.529
G1 F1800 X60.318 Y59.469 E151.96717
G0 F9000 X60.884 Y59.469
G1 F1800 X91.943 Y90.529 E152.69764
G0 F9000 X92.509 Y90.529
G1 F1800 X61.449 Y59.469 E153.42812
G0 F9000 X62.015 Y59.469
G1 F1800 X93.075 Y90.529 E154.15861
G0 F9000 X93.640 Y90.529
G1 F1800 X62.581 Y59.469 E154.88908
G0 F9000 X63.146 Y59.469
G1 F1800 X94.206 Y90.529 E155.61956
G0 F9000 X94.772 Y90.529
G1 F1800 X63.712 Y59.469 E156.35004
G0 F9000 X64.278 Y59.469
G1 F1800 X95.337 Y90.529 E157.08052
G0 F9000 X95.903 Y90.529
G1 F1800 X64.843 Y59.469 E157.81100
G0 F9000 X65.409 Y59.469
G1 F1800 X96.469 Y90.529 E158.54148
G0 F9000 X97.034 Y90.529
G1 F1800 X65.975 Y59.469 E159.27196
G0 F9000 X66.540 Y59.469
G1 F1800 X97.600 Y90.529 E160.00244
G0 F9000 X98.166 Y90.529
G1 F1800 X67.106 Y59.469 E160.73292
G0 F9000 X67.672 Y59.469
G1 F1800 X98.731 Y90.529 E161.46339
G0 F9000 X99.297 Y90.529
G1 F1800 X68.237 Y59.469 E162.19388
G0 F9000 X68.803 Y59.469
G1 F1800 X99.863 Y90.529 E162.92436
G0 F9000 X100.428 Y90.529
G1 F1800 X69.369 Y59.469 E163.65483
G0 F9000 X69.934 Y59.469
G1 F1800 X100.994 Y90.529 E164.38532
G0 F9000 X101.560 Y90.529
G1 F1800 X70.500 Y59.469 E165.11580
G0 F9000 X71.066 Y59.469
G1 F1800 X102.126 Y90.529 E165.84628
G0 F9000 X102.691 Y90.529
G1 F1800 X71.632 Y59.469 E166.57676
G0 F9000 X72.197 Y59.469
G1 F1800 X103.257 Y90.529 E167.30724
G0 F9000 X103.823 Y90.529
G1 F1800 X72.763 Y59.469 E168.03772
G0 F9000 X73.329 Y59.469
G1 F1800 X104.388 Y90.529 E168.76819
G0 F9000 X104.928 Y90.503
G1 F1800 X73.894 Y59.469 E169.49807
G0 F9000 X74.460 Y59.469
G1 F1800 X105.425 Y90.434 E170.22632
G0 F9000 X105.870 Y90.314
G1 F1800 X75.026 Y59.469 E170.95173
G0 F9000 X75.591 Y59.469
G1 F1800 X106.280 Y90.158 E171.67349
G0 F9000 X106.668 Y89.980
G1 F1800 X76.157 Y59.469 E172.39106
G0 F9000 X76.723 Y59.469
G1 F1800 X107.014 Y89.761 E173.10347
G0 F9000 X107.346 Y89.527
G1 F1800 X77.288 Y59.469 E173.81039
G0 F9000 X77.854 Y59.469
G1 F1800 X107.640 Y89.255 E174.51091
G0 F9000 X107.923 Y88.973
G1 F1800 X78.420 Y59.469 E175.20479
G0 F9000 X78.985 Y59.469
G1 F1800 X108.166 Y88.650 E175.89108
G0 F9000 X108.400 Y88.318
G1 F1800 X79.551 Y59.469 E176.56956
G0 F9000 X80.117 Y59.469
G1 F1800 X108.586 Y87.939 E177.23912
G0 F9000 X108.765 Y87.552
G1 F1800 X80.683 Y59.469 E177.89958
G0 F9000 X81.248 Y59.469
G1 F1800 X108.885 Y87.107 E178.54957
G0 F9000 X108.984 Y86.639
G1 F1800 X81.814 Y59.469 E179.18857
G0 F9000 X82.380 Y59.469
G1 F1800 X109.029 Y86.119 E179.81532
G0 F9000 X109.029 Y85.553
G1 F1800 X82.945 Y59.469 E180.42878
G0 F9000 X83.511 Y59.469
G1 F1800 X109.029 Y84.987 E181.02892
G0 F9000 X109.029 Y84.422
G1 F1800 X84.077 Y59.469 E181.61577
G0 F9000 X84.642 Y59.469
G1 F1800 X109.029 Y83.856 E182.18931
G0 F9000 X109.029 Y83.290
G1 F1800 X85.208 Y59.469 E182.74955
G0 F9000 X85.774 Y59.469
G1 F1800 X109.029 Y82.725 E183.29648
G0 F9000 X109.029 Y82.159
G1 F1800 X86.339 Y59.469 E183.83011
G0 F9000 X86.905 Y59.469
G1 F1800 X109.029 Y81.593 E184.35044
G0 F9000 X109.029 Y81.028
G1 F1800 X87.471 Y59.469 E184.85746
G0 F9000 X88.036 Y59.469
G1 F1800 X109.029 Y80.462 E185.35118
G0 F9000 X109.029 Y79.896
G1 F1800 X88.602 Y59.469 E185.83160
G0 F9000 X89.168 Y59.469
G1 F1800 X109.029 Y79.331 E186.29871
G0 F9000 X109.029 Y78.765
G1 F1800 X89.733 Y59.469 E186.75252
G0 F9000 X90.299 Y59.469
G1 F1800 X109.029 Y78.199 E187.19302
G0 F9000 X109.029 Y77.633
G1 F1800 X90.865 Y59.469 E187.62021
G0 F9000 X91.431 Y59.469
G1 F1800 X109.029 Y77.068 E188.03410
G0 F9000 X109.029 Y76.502
G1 F1800 X91.996 Y59.469 E188.43469
G0 F9000 X92.562 Y59.469
G1 F1800 X109.029 Y75.936 E188.82197
G0 F9000 X109.029 Y75.371
G1 F1800 X93.128 Y59.469 E189.19595
G0 F9000 X93.693 Y59.469
G1 F1800 X109.029 Y74.805 E189.55663
G0 F9000 X109.029 Y74.239
G1 F1800 X94.259 Y59.469 E189.90399
G0 F9000 X94.825 Y59.469
G1 F1800 X109.029 Y73.674 E190.23806
G0 F9000 X109.029 Y73.108
G1 F1800 X95.390 Y59.469 E190.55883
G0 F9000 X95.956 Y59.469
G1 F1800 X109.029 Y72.542 E190.86629
G0 F9000 X109.029 Y71.977
G1 F1800 X96.522 Y59.469 E191.16044
G0 F9000 X97.087 Y59.469
G1 F1800 X109.029 Y71.411 E191.44130
G0 F9000 X109.029 Y70.845
G1 F1800 X97.653 Y59.469 E191.70885
G0 F9000 X98.219 Y59.469
G1 F1800 X109.029 Y70.280 E191.96309
G0 F9000 X109.029 Y69.714
G1 F1800 X98.784 Y59.469 E192.20404
G0 F9000 X99.350 Y59.469
G1 F1800 X109.029 Y69.148 E192.43168
G0 F9000 X109.029 Y68.582
G1 F1800 X99.916 Y59.469 E192.64600
G0 F9000 X100.481 Y59.469
G1 F1800 X109.029 Y68.017 E192.84704
G0 F9000 X109.029 Y67.451
G1 F1800 X101.047 Y59.469 E193.03476
G0 F9000 X101.613 Y59.469
G1 F1800 X109.029 Y66.885 E193.20917
G0 F9000 X109.029 Y66.320
G1 F1800 X102.179 Y59.469 E193.37029
G0 F9000 X102.744 Y59.469
G1 F1800 X109.029 Y65.754 E193.51810
G0 F9000 X109.029 Y65.188
G1 F1800 X103.310 Y59.469 E193.65260
G0 F9000 X103.876 Y59.469
G1 F1800 X109.029 Y64.623 E193.77381
G0 F9000 X109.029 Y64.057
G1 F1800 X104.441 Y59.469 E193.88171
G0 F9000 X105.043 Y59.505
G1 F1800 X108.992 Y63.455 E193.97459
G0 F9000 X108.846 Y62.742
G1 F1800 X105.756 Y59.652 E194.04727
G0 F9000 X106.702 Y60.033
G1 F1800 X108.463 Y61.794 E194.08868
G0 F9000 X59.699 Y90.529
G1 F1800 X40.969 Y71.799 E194.52918
G0 F9000 X40.969 Y72.365
G1 F1800 X59.133 Y90.529 E194.95637
G0 F9000 X58.568 Y90.529
G1 F1800 X40.969 Y72.930 E195.37027
G0 F9000 X40.969 Y73.496
G1 F1800 X58.002 Y90.529 E195.77086
G0 F9000 X57.436 Y90.529
G1 F1800 X40.969 Y74.062 E196.15814
G0 F9000 X40.969 Y74.628
G1 F1800 X56.871 Y90.529 E196.53212
G0 F9000 X56.305 Y90.529
G1 F1800 X40.969 Y75.193 E196.89280
G0 F9000 X40.969 Y75.759
G1 F1800 X55.739 Y90.529 E197.24017
G0 F9000 X55.174 Y90.529
G1 F1800 X40.969 Y76.325 E197.57424
G0 F9000 X40.969 Y76.890
G1 F1800 X54.608 Y90.529 E197.89500
G0 F9000 X54.042 Y90.529
G1 F1800 X40.969 Y77.456 E198.20246
G0 F9000 X40.969 Y78.022
G1 F1800 X53.477 Y90.529 E198.49662
G0 F9000 X52.911 Y90.529
G1 F1800 X40.969 Y78.587 E198.77748
G0 F9000 X40.969 Y79.153
G1 F1800 X52.345 Y90.529 E199.04502
G0 F9000 X51.780 Y90.529
G1 F1800 X40.969 Y79.719 E199.29927
G0 F9000 X40.969 Y80.284
G1 F1800 X51.214 Y90.529 E199.54022
G0 F9000 X50.648 Y90.529
G1 F1800 X40.969 Y80.850 E199.76785
G0 F9000 X40.969 Y81.416
G1 F1800 X50.082 Y90.529 E199.98217
G0 F9000 X49.517 Y90.529
G1 F1800 X40.969 Y81.981 E200.18321
G0 F9000 X40.969 Y82.547
G1 F1800 X48.951 Y90.529 E200.37093
G0 F9000 X48.385 Y90.529
G1 F1800 X40.969 Y83.113 E200.54535
G0 F9000 X40.969 Y83.679
G1 F1800 X47.820 Y90.529 E200.70646
G0 F9000 X47.254 Y90.529
G1 F1800 X40.969 Y84.244 E200.85427
G0 F9000 X40.969 Y84.810
G1 F1800 X46.688 Y90.529 E200.98878
G0 F9000 X46.123 Y90.529
G1 F1800 X40.969 Y85.376 E201.10998
G0 F9000 X40.969 Y85.941
G1 F1800 X45.557 Y90.529 E201.21788
G0 F9000 X44.954 Y90.491
G1 F1800 X41.005 Y86.542 E201.31076
G0 F9000 X41.152 Y87.255
G1 F1800 X44.242 Y90.345 E201.38343
G0 F9000 X43.293 Y89.962
G1 F1800 X41.532 Y88.201 E201.42484
;LAYER:-1
;RAFT
G0 F9000 X41.469 Y88.135 Z0.700
;TYPE:SUPPORT
