;FLAVOR:Marlin
;TIME:1701
;Filament used: 1.37969m
;Layer height: 0.2
;Generated with Cura_SteamEngine 3.4.1
M190 S50
M104 S195
M109 S195
M82 ;absolute extrusion mode
G28 ;Home
G1 Z15.0 F6000 ;Move the platform down 15mm
;Prime the extruder
G92 E0
G1 F200 E3
G92 E0
G92 E0
G1 F1500 E-10
;LAYER_COUNT:100
;LAYER:0
M107
G0 F1500 X53.703 Y54.047 Z0.3
;TYPE:SKIRT
G1 F1500 E0
G1 F1200 X54.531 Y53.247 E0.05026
G1 X55.694 Y52.29 E0.11601
G1 X56.053 Y52.021 E0.13559
G1 X56.998 Y51.363 E0.18586
G1 X57.986 Y50.772 E0.23612
G1 X59.013 Y50.251 E0.28639
G1 X59.892 Y49.873 E0.32816
G1 X60.463 Y49.647 E0.35497
G1 X61.548 Y49.261 E0.40524
G1 X62.657 Y48.951 E0.45551
G1 X63.784 Y48.719 E0.50574
G1 X64.925 Y48.565 E0.556
G1 X66.514 Y48.484 E0.62545
G1 X82.94 Y48.435 E1.34252
G1 X84.09 Y48.472 E1.39274
G1 X85.678 Y48.655 E1.46253
G1 X86.335 Y48.763 E1.49159
G1 X87.464 Y48.989 E1.54185
G1 X88.574 Y49.293 E1.59209
G1 X89.661 Y49.673 E1.64236
G1 X90.718 Y50.128 E1.6926
G1 X91.742 Y50.655 E1.74287
G1 X92.373 Y51.026 E1.77483
G1 X93.119 Y51.488 E1.81313
G1 X94.076 Y52.128 E1.86339
G1 X94.987 Y52.833 E1.91368
G1 X95.846 Y53.599 E1.96392
G1 X96.65 Y54.423 E2.01417
G1 X97.395 Y55.301 E2.06444
G1 X97.798 Y55.833 E2.09358
G1 X98.187 Y56.368 E2.12245
G1 X98.831 Y57.322 E2.1727
G1 X99.408 Y58.318 E2.22295
G1 X99.914 Y59.353 E2.27324
G1 X100.347 Y60.419 E2.32347
G1 X100.536 Y60.967 E2.34877
G1 X100.717 Y61.521 E2.37421
G1 X101.037 Y62.628 E2.42452
G1 X101.279 Y63.753 E2.47475
G1 X101.442 Y64.893 E2.52502
G1 X101.525 Y66.041 E2.57527
G1 X101.537 Y66.641 E2.60147
G1 X101.565 Y82.961 E3.3139
G1 X101.527 Y84.111 E3.36413
G1 X101.345 Y85.678 E3.433
G1 X101.237 Y86.335 E3.46206
G1 X101.011 Y87.464 E3.51232
G1 X100.707 Y88.574 E3.56256
G1 X100.327 Y89.661 E3.61283
G1 X99.872 Y90.718 E3.66307
G1 X99.345 Y91.742 E3.71334
G1 X98.948 Y92.414 E3.74741
G1 X98.478 Y93.168 E3.7862
G1 X97.835 Y94.123 E3.83646
G1 X97.128 Y95.032 E3.88673
G1 X96.359 Y95.889 E3.93699
G1 X95.533 Y96.69 E3.98722
G1 X94.653 Y97.433 E4.0375
G1 X93.587 Y98.204 E4.09493
G1 X92.922 Y98.646 E4.12979
G1 X91.942 Y99.25 E4.18004
G1 X90.922 Y99.784 E4.2303
G1 X89.867 Y100.246 E4.28058
G1 X88.295 Y100.781 E4.35307
G1 X87.878 Y100.9 E4.372
G1 X86.761 Y101.177 E4.42224
G1 X85.627 Y101.376 E4.4725
G1 X84.482 Y101.496 E4.52275
G1 X83.354 Y101.536 E4.57203
G1 X66.919 Y101.56 E5.28948
G1 X65.768 Y101.522 E5.33975
G1 X64.623 Y101.404 E5.39
G1 X63.202 Y101.143 E5.45307
G1 X62.537 Y100.991 E5.48285
G1 X61.424 Y100.696 E5.53311
G1 X60.334 Y100.324 E5.58339
G1 X59.273 Y99.877 E5.63365
G1 X58.245 Y99.358 E5.68392
G1 X57.001 Y98.601 E5.74749
G1 X56.367 Y98.176 E5.78081
G1 X55.433 Y97.502 E5.83109
G1 X54.549 Y96.765 E5.88133
G1 X53.718 Y95.968 E5.9316
G1 X52.944 Y95.116 E5.98185
G1 X52.103 Y94.035 E6.04164
G1 X51.717 Y93.494 E6.07065
G1 X51.082 Y92.534 E6.12089
G1 X50.514 Y91.532 E6.17117
G1 X50.017 Y90.494 E6.22141
G1 X49.594 Y89.423 E6.27168
G1 X49.289 Y88.476 E6.31511
G1 X49.102 Y87.83 E6.34447
G1 X48.82 Y86.713 E6.39476
G1 X48.617 Y85.58 E6.44501
G1 X48.493 Y84.436 E6.49524
G1 X48.448 Y83.219 E6.54841
G1 X48.45 Y66.762 E7.26682
G1 X48.49 Y65.611 E7.31709
G1 X48.61 Y64.466 E7.36735
G1 X48.809 Y63.332 E7.41761
G1 X49.105 Y62.15 E7.4708
G1 X49.285 Y61.529 E7.49903
G1 X49.644 Y60.435 E7.54929
G1 X50.078 Y59.368 E7.59958
G1 X50.585 Y58.334 E7.64985
G1 X51.162 Y57.338 E7.7001
G1 X51.796 Y56.399 E7.74956
G1 X52.224 Y55.81 E7.78134
G1 X52.933 Y54.903 E7.8316
G1 X53.703 Y54.047 E7.88186
G0 F1500 X53.972 Y54.273
G1 F1200 X54.792 Y53.482 E7.93159
G1 X55.904 Y52.57 E7.99438
G1 X56.263 Y52.301 E8.01396
G1 X57.198 Y51.65 E8.06369
G1 X58.176 Y51.067 E8.1134
G1 X59.193 Y50.553 E8.16314
G1 X60.021 Y50.199 E8.20245
G1 X60.592 Y49.973 E8.22926
G1 X61.665 Y49.591 E8.27898
G1 X62.763 Y49.285 E8.32874
G1 X63.879 Y49.058 E8.37845
G1 X65.008 Y48.909 E8.42817
G1 X66.515 Y48.834 E8.49404
G1 X82.941 Y48.785 E9.2111
G1 X84.079 Y48.822 E9.2608
G1 X85.621 Y49 E9.32856
G1 X86.278 Y49.108 E9.35763
G1 X87.395 Y49.332 E9.40736
G1 X88.493 Y49.634 E9.45707
G1 X89.568 Y50.012 E9.50682
G1 X90.613 Y50.465 E9.55654
G1 X91.624 Y50.99 E9.60627
G1 X92.189 Y51.324 E9.63492
G1 X92.935 Y51.786 E9.67323
G1 X93.881 Y52.419 E9.72291
G1 X94.781 Y53.118 E9.77266
G1 X95.63 Y53.877 E9.82237
G1 X96.424 Y54.695 E9.87214
G1 X97.158 Y55.566 E9.92186
G1 X97.515 Y56.038 E9.9477
G1 X97.904 Y56.573 E9.97657
G1 X98.541 Y57.518 E10.02632
G1 X99.11 Y58.504 E10.07602
G1 X99.609 Y59.528 E10.12574
G1 X100.204 Y61.076 E10.19814
G1 X100.385 Y61.63 E10.22358
G1 X100.7 Y62.725 E10.27332
G1 X100.938 Y63.839 E10.32305
G1 X101.097 Y64.967 E10.37278
G1 X101.187 Y66.641 E10.44596
G1 X101.215 Y82.961 E11.15839
G1 X101.177 Y84.1 E11.20814
G1 X101 Y85.621 E11.27499
G1 X100.892 Y86.278 E11.30406
G1 X100.668 Y87.395 E11.35379
G1 X100.366 Y88.493 E11.4035
G1 X99.988 Y89.568 E11.45324
G1 X99.535 Y90.613 E11.50296
G1 X99.01 Y91.624 E11.55269
G1 X98.651 Y92.229 E11.5834
G1 X98.181 Y92.983 E11.62219
G1 X97.545 Y93.928 E11.67192
G1 X96.844 Y94.826 E11.72165
G1 X96.082 Y95.672 E11.77135
G1 X95.262 Y96.463 E11.82109
G1 X94.389 Y97.195 E11.87082
G1 X93.393 Y97.913 E11.92442
G1 X92.728 Y98.355 E11.95928
G1 X91.758 Y98.951 E12.00898
G1 X90.748 Y99.479 E12.05873
G1 X89.704 Y99.934 E12.10844
G1 X88.199 Y100.444 E12.17781
G1 X87.782 Y100.563 E12.19674
G1 X86.677 Y100.837 E12.24644
G1 X85.555 Y101.033 E12.29616
G1 X84.421 Y101.149 E12.34592
G1 X83.354 Y101.186 E12.39253
G1 X66.919 Y101.21 E13.10998
G1 X65.78 Y101.172 E13.15973
G1 X64.647 Y101.054 E13.20946
G1 X63.28 Y100.802 E13.27014
G1 X62.615 Y100.65 E13.29992
G1 X61.514 Y100.357 E13.34966
G1 X60.436 Y99.988 E13.39939
G1 X59.387 Y99.544 E13.44912
G1 X58.372 Y99.028 E13.49883
G1 X57.196 Y98.31 E13.55898
G1 X56.562 Y97.885 E13.5923
G1 X55.638 Y97.218 E13.64204
G1 X54.764 Y96.488 E13.69175
G1 X53.943 Y95.698 E13.74149
G1 X53.18 Y94.852 E13.79122
G1 X52.388 Y93.832 E13.8476
G1 X52.002 Y93.291 E13.87661
G1 X51.374 Y92.341 E13.92632
G1 X50.813 Y91.349 E13.97607
G1 X50.324 Y90.32 E14.02581
G1 X49.908 Y89.26 E14.07552
G1 X49.625 Y88.378 E14.11595
G1 X49.438 Y87.732 E14.14531
G1 X49.16 Y86.628 E14.19501
G1 X48.96 Y85.506 E14.24476
G1 X48.839 Y84.374 E14.29446
G1 X48.798 Y83.219 E14.34491
G1 X48.8 Y66.762 E15.06332
G1 X48.84 Y65.624 E15.11303
G1 X48.96 Y64.491 E15.16277
G1 X49.159 Y63.369 E15.21251
G1 X49.441 Y62.247 E15.26302
G1 X49.621 Y61.626 E15.29124
G1 X49.977 Y60.544 E15.34097
G1 X50.407 Y59.489 E15.3907
G1 X50.911 Y58.467 E15.44044
G1 X51.484 Y57.483 E15.49015
G1 X52.079 Y56.605 E15.53645
G1 X52.507 Y56.016 E15.56824
G1 X53.209 Y55.119 E15.61796
G1 X53.972 Y54.273 E15.66769
G0 F1500 X54.24 Y54.499
G1 F1200 X55.053 Y53.718 E15.7169
G1 X56.114 Y52.85 E15.77675
G1 X56.473 Y52.581 E15.79633
G1 X57.398 Y51.938 E15.84551
G1 X58.366 Y51.362 E15.89468
G1 X59.373 Y50.856 E15.94388
G1 X60.15 Y50.524 E15.98076
G1 X60.721 Y50.298 E16.00757
G1 X61.782 Y49.921 E16.05672
G1 X62.868 Y49.62 E16.10592
G1 X63.973 Y49.397 E16.15513
G1 X65.09 Y49.252 E16.2043
G1 X66.516 Y49.184 E16.26662
G1 X82.942 Y49.135 E16.98368
G1 X84.068 Y49.172 E17.03286
G1 X85.564 Y49.345 E17.09861
G1 X86.221 Y49.453 E17.12767
G1 X87.326 Y49.675 E17.17687
G1 X88.412 Y49.975 E17.22606
G1 X89.474 Y50.351 E17.27524
G1 X90.507 Y50.802 E17.32444
G1 X91.505 Y51.325 E17.37363
G1 X92.004 Y51.622 E17.39898
G1 X92.75 Y52.084 E17.43728
G1 X93.687 Y52.71 E17.48648
G1 X94.576 Y53.402 E17.53566
G1 X95.414 Y54.155 E17.58484
G1 X96.197 Y54.966 E17.63405
G1 X97.232 Y56.244 E17.70584
G1 X97.621 Y56.779 E17.73471
G1 X98.251 Y57.713 E17.7839
G1 X98.813 Y58.69 E17.8331
G1 X99.304 Y59.704 E17.88228
G1 X99.871 Y61.185 E17.95151
G1 X100.052 Y61.739 E17.97695
G1 X100.364 Y62.822 E18.02615
G1 X100.598 Y63.924 E18.07533
G1 X100.753 Y65.04 E18.12451
G1 X100.837 Y66.642 E18.19454
G1 X100.865 Y82.962 E18.90698
G1 X100.827 Y84.088 E18.95616
G1 X100.655 Y85.564 E19.02103
G1 X100.547 Y86.221 E19.05009
G1 X100.325 Y87.326 E19.0993
G1 X100.025 Y88.412 E19.14848
G1 X99.649 Y89.474 E19.19766
G1 X99.198 Y90.507 E19.24686
G1 X98.675 Y91.505 E19.29605
G1 X98.354 Y92.044 E19.32344
G1 X97.884 Y92.798 E19.36222
G1 X97.254 Y93.732 E19.4114
G1 X96.56 Y94.62 E19.4606
G1 X95.805 Y95.456 E19.50978
G1 X94.992 Y96.236 E19.55896
G1 X94.126 Y96.956 E19.60812
G1 X93.2 Y97.621 E19.65789
G1 X92.535 Y98.063 E19.69275
G1 X91.575 Y98.653 E19.74194
G1 X90.575 Y99.173 E19.79114
G1 X89.541 Y99.622 E19.84035
G1 X88.103 Y100.108 E19.90661
G1 X87.686 Y100.227 E19.92555
G1 X86.593 Y100.497 E19.97469
G1 X85.482 Y100.689 E20.02391
G1 X84.361 Y100.802 E20.0731
G1 X83.353 Y100.836 E20.11712
G1 X66.918 Y100.86 E20.83458
G1 X65.792 Y100.822 E20.88376
G1 X64.672 Y100.704 E20.93292
G1 X63.358 Y100.461 E20.99126
G1 X62.693 Y100.309 E21.02103
G1 X61.604 Y100.019 E21.07023
G1 X60.538 Y99.653 E21.11943
G1 X59.501 Y99.212 E21.16862
G1 X58.498 Y98.698 E21.21782
G1 X57.391 Y98.019 E21.27452
G1 X56.757 Y97.594 E21.30784
G1 X55.843 Y96.934 E21.35705
G1 X54.98 Y96.211 E21.4062
G1 X54.169 Y95.428 E21.45541
G1 X53.416 Y94.59 E21.50459
G1 X52.673 Y93.628 E21.55765
G1 X52.287 Y93.087 E21.58666
G1 X51.666 Y92.147 E21.63584
G1 X51.112 Y91.166 E21.68503
G1 X50.63 Y90.148 E21.73419
G1 X50.221 Y89.098 E21.78339
G1 X49.961 Y88.281 E21.82081
G1 X49.774 Y87.635 E21.85017
G1 X49.499 Y86.542 E21.89937
G1 X49.303 Y85.433 E21.94854
G1 X49.186 Y84.312 E21.99774
G1 X49.148 Y83.219 E22.04548
G1 X49.15 Y66.762 E22.76389
G1 X49.19 Y65.636 E22.81308
G1 X49.31 Y64.516 E22.86225
G1 X49.509 Y63.407 E22.91144
G1 X49.778 Y62.344 E22.9593
G1 X49.958 Y61.723 E22.98753
G1 X50.309 Y60.653 E23.03669
G1 X50.736 Y59.61 E23.08588
G1 X51.236 Y58.6 E23.13508
G1 X51.806 Y57.629 E23.18423
G1 X52.363 Y56.811 E23.22744
G1 X52.791 Y56.222 E23.25922
G1 X53.485 Y55.335 E23.30838
G1 X54.24 Y54.499 E23.35756
G0 F1500 X54.509 Y54.725
G1 F1200 X55.314 Y53.955 E23.40619
G1 X56.324 Y53.13 E23.46312
G1 X56.683 Y52.861 E23.4827
G1 X57.598 Y52.225 E23.53134
G1 X58.556 Y51.657 E23.57996
G1 X59.553 Y51.158 E23.62863
G1 X60.279 Y50.85 E23.66306
G1 X60.85 Y50.624 E23.68987
G1 X61.9 Y50.251 E23.73851
G1 X62.974 Y49.955 E23.78714
G1 X64.066 Y49.736 E23.83576
G1 X65.172 Y49.596 E23.88443
G1 X66.517 Y49.534 E23.94321
G1 X82.943 Y49.485 E24.66027
G1 X84.056 Y49.522 E24.70888
G1 X85.507 Y49.691 E24.77265
G1 X86.164 Y49.799 E24.80172
G1 X87.257 Y50.019 E24.85039
G1 X88.33 Y50.317 E24.899
G1 X89.38 Y50.691 E24.94766
G1 X90.4 Y51.139 E24.99629
G1 X91.82 Y51.919 E25.06702
G1 X92.566 Y52.381 E25.10532
G1 X93.492 Y53.001 E25.15397
G1 X94.371 Y53.687 E25.20264
G1 X95.198 Y54.433 E25.25126
G1 X95.97 Y55.237 E25.29992
G1 X96.949 Y56.45 E25.36797
G1 X97.338 Y56.985 E25.39684
G1 X97.96 Y57.909 E25.44547
G1 X98.515 Y58.876 E25.49414
G1 X98.999 Y59.879 E25.54276
G1 X99.538 Y61.294 E25.60886
G1 X99.719 Y61.848 E25.6343
G1 X100.027 Y62.918 E25.68291
G1 X100.257 Y64.009 E25.73158
G1 X100.409 Y65.113 E25.78023
G1 X100.487 Y66.642 E25.84706
G1 X100.515 Y82.962 E26.55949
G1 X100.477 Y84.076 E26.60815
G1 X100.309 Y85.507 E26.67105
G1 X100.201 Y86.164 E26.70012
G1 X99.981 Y87.257 E26.74879
G1 X99.683 Y88.33 E26.7974
G1 X99.309 Y89.38 E26.84606
G1 X98.861 Y90.4 E26.89469
G1 X98.057 Y91.859 E26.96741
G1 X97.587 Y92.613 E27.0062
G1 X96.964 Y93.536 E27.05481
G1 X96.276 Y94.413 E27.10347
G1 X95.528 Y95.238 E27.15208
G1 X94.722 Y96.008 E27.20074
G1 X93.862 Y96.717 E27.2494
G1 X93.006 Y97.33 E27.29536
G1 X92.341 Y97.772 E27.33022
G1 X91.391 Y98.355 E27.37888
G1 X90.402 Y98.868 E27.42751
G1 X89.379 Y99.309 E27.47614
G1 X88.007 Y99.771 E27.53934
G1 X87.59 Y99.89 E27.55827
G1 X86.509 Y100.157 E27.60688
G1 X85.41 Y100.346 E27.65556
G1 X84.302 Y100.456 E27.70416
G1 X83.353 Y100.486 E27.74561
G1 X66.918 Y100.51 E28.46307
G1 X65.804 Y100.472 E28.51172
G1 X64.696 Y100.353 E28.56037
G1 X63.436 Y100.12 E28.61631
G1 X62.771 Y99.968 E28.64609
G1 X61.694 Y99.681 E28.69474
G1 X60.641 Y99.317 E28.74338
G1 X59.616 Y98.879 E28.79204
G1 X58.626 Y98.368 E28.84067
G1 X57.585 Y97.729 E28.894
G1 X56.951 Y97.304 E28.92732
G1 X56.049 Y96.65 E28.97595
G1 X55.195 Y95.934 E29.0246
G1 X54.395 Y95.158 E29.07326
G1 X53.653 Y94.327 E29.12189
G1 X52.958 Y93.425 E29.1716
G1 X52.572 Y92.884 E29.20061
G1 X51.958 Y91.954 E29.24926
G1 X51.412 Y90.983 E29.29789
G1 X50.937 Y89.975 E29.34653
G1 X50.536 Y88.936 E29.39515
G1 X50.297 Y88.184 E29.42959
G1 X50.11 Y87.538 E29.45895
G1 X49.839 Y86.457 E29.5076
G1 X49.646 Y85.36 E29.55623
G1 X49.532 Y84.251 E29.60489
G1 X49.498 Y83.219 E29.64997
G1 X49.5 Y66.762 E30.36838
G1 X49.54 Y65.649 E30.417
G1 X49.66 Y64.541 E30.46565
G1 X49.859 Y63.444 E30.51432
G1 X50.114 Y62.442 E30.55946
G1 X50.294 Y61.821 E30.58768
G1 X50.642 Y60.763 E30.6363
G1 X51.066 Y59.732 E30.68497
G1 X51.562 Y58.734 E30.73362
G1 X52.128 Y57.775 E30.78223
G1 X52.646 Y57.017 E30.82231
G1 X53.074 Y56.428 E30.85409
G1 X53.761 Y55.55 E30.90276
G1 X54.509 Y54.725 E30.95137
G0 F1500 X54.777 Y54.951
G1 F1200 X55.575 Y54.191 E30.99948
G1 X56.533 Y53.41 E31.05343
G1 X56.892 Y53.141 E31.07302
G1 X57.797 Y52.513 E31.1211
G1 X58.746 Y51.952 E31.16923
G1 X59.732 Y51.461 E31.21731
G1 X60.407 Y51.175 E31.24932
G1 X60.978 Y50.949 E31.27612
G1 X62.017 Y50.581 E31.32424
G1 X63.079 Y50.289 E31.37232
G1 X64.16 Y50.076 E31.42042
G1 X65.253 Y49.941 E31.46849
G1 X66.518 Y49.884 E31.52377
G1 X82.944 Y49.835 E32.24084
G1 X84.045 Y49.872 E32.28893
G1 X85.45 Y50.036 E32.35068
G1 X86.107 Y50.144 E32.37974
G1 X87.187 Y50.362 E32.42784
G1 X88.249 Y50.658 E32.47597
G1 X89.285 Y51.03 E32.52402
G1 X90.293 Y51.476 E32.57214
G1 X91.636 Y52.217 E32.6391
G1 X92.382 Y52.679 E32.6774
G1 X93.297 Y53.292 E32.72548
G1 X94.165 Y53.971 E32.77359
G1 X94.981 Y54.71 E32.82165
G1 X95.742 Y55.507 E32.86975
G1 X96.666 Y56.656 E32.93412
G1 X97.055 Y57.191 E32.96299
G1 X97.67 Y58.105 E33.01108
G1 X98.217 Y59.061 E33.05917
G1 X98.693 Y60.054 E33.10724
G1 X99.206 Y61.402 E33.1702
G1 X99.387 Y61.956 E33.19564
G1 X99.691 Y63.015 E33.24374
G1 X99.917 Y64.093 E33.29182
G1 X100.064 Y65.185 E33.33992
G1 X100.137 Y66.643 E33.40365
G1 X100.165 Y82.963 E34.11608
G1 X100.127 Y84.064 E34.16417
G1 X99.964 Y85.45 E34.22509
G1 X99.856 Y86.107 E34.25416
G1 X99.638 Y87.187 E34.30226
G1 X99.342 Y88.249 E34.35038
G1 X98.97 Y89.285 E34.39844
G1 X98.524 Y90.293 E34.44655
G1 X97.76 Y91.673 E34.51541
G1 X97.29 Y92.427 E34.5542
G1 X96.674 Y93.34 E34.60228
G1 X95.993 Y94.206 E34.65037
G1 X95.251 Y95.021 E34.69849
G1 X94.452 Y95.779 E34.74656
G1 X93.6 Y96.478 E34.79467
G1 X92.812 Y97.038 E34.83687
G1 X92.147 Y97.48 E34.87173
G1 X91.208 Y98.056 E34.91982
G1 X90.23 Y98.563 E34.96791
G1 X89.217 Y98.997 E35.01602
G1 X87.911 Y99.434 E35.07614
G1 X87.494 Y99.553 E35.09507
G1 X86.425 Y99.817 E35.14313
G1 X85.339 Y100.002 E35.19123
G1 X84.242 Y100.109 E35.23934
G1 X83.352 Y100.136 E35.27821
G1 X66.917 Y100.16 E35.99566
G1 X65.816 Y100.122 E36.04376
G1 X64.721 Y100.003 E36.09184
G1 X63.514 Y99.778 E36.14544
G1 X62.849 Y99.626 E36.17522
G1 X61.784 Y99.342 E36.22333
G1 X60.743 Y98.981 E36.27143
G1 X59.731 Y98.546 E36.31952
G1 X58.754 Y98.039 E36.36757
G1 X57.78 Y97.438 E36.41753
G1 X57.146 Y97.013 E36.45085
G1 X56.254 Y96.367 E36.49893
G1 X55.411 Y95.657 E36.54704
G1 X54.622 Y94.889 E36.59511
G1 X53.89 Y94.065 E36.64322
G1 X53.243 Y93.222 E36.68961
G1 X52.857 Y92.681 E36.71862
G1 X52.25 Y91.761 E36.76674
G1 X51.712 Y90.8 E36.81482
G1 X51.244 Y89.803 E36.86289
G1 X50.85 Y88.774 E36.91099
G1 X50.633 Y88.087 E36.94245
G1 X50.446 Y87.441 E36.9718
G1 X50.179 Y86.372 E37.0199
G1 X49.989 Y85.287 E37.06799
G1 X49.879 Y84.191 E37.11607
G1 X49.848 Y83.219 E37.15853
G1 X49.85 Y66.762 E37.87694
G1 X49.89 Y65.661 E37.92503
G1 X50.01 Y64.566 E37.97312
G1 X50.209 Y63.483 E38.02119
G1 X50.45 Y62.539 E38.06372
G1 X50.63 Y61.918 E38.09195
G1 X50.975 Y60.872 E38.14003
G1 X51.395 Y59.854 E38.1881
G1 X51.887 Y58.868 E38.23621
G1 X52.45 Y57.921 E38.2843
G1 X52.929 Y57.222 E38.32129
G1 X53.357 Y56.633 E38.35307
G1 X54.036 Y55.766 E38.40115
G1 X54.777 Y54.951 E38.44923
G1 F1500 E28.44923
G0 F1500 X66.701 Y64.352
G0 X67.014 Y65.544
G0 X83.153 Y65.635
G0 X83.164 Y65.536
;TYPE:WALL-INNER
G1 F1500 E38.44923
G1 F1200 X83.335 Y65.564 E38.4568
G1 X83.479 Y65.605 E38.46333
