;FLAVOR:Marlin
;TIME:1965
;Filament used: 1.59087m
;Layer height: 0.2
;Generated with Cura_SteamEngine 3.4.1
M190 S50
M104 S195
M109 S195
M82 ;absolute extrusion mode
G28 ;Home
G1 Z15.0 F6000 ;Move the platform down 15mm
;Prime the extruder
G92 E0
G1 F200 E3
G92 E0
G92 E0
G1 F1500 E-10
;LAYER_COUNT:100
;LAYER:0
M107
G0 F1500 X53.043 Y53.539 Z0.3
;TYPE:SKIRT
G1 F1500 E0
G1 F1200 X53.869 Y52.736 E0.05029
G1 X54.747 Y51.992 E0.10053
G1 X55.676 Y51.311 E0.15081
G1 X56.649 Y50.697 E0.20104
G1 X57.663 Y50.151 E0.25131
G1 X58.712 Y49.677 E0.30156
G1 X59.792 Y49.277 E0.35184
G1 X60.896 Y48.952 E0.40208
G1 X62.021 Y48.706 E0.45235
G1 X63.16 Y48.537 E0.50261
G1 X64.308 Y48.449 E0.55288
G1 X65.01 Y48.434 E0.58353
G1 X84.992 Y48.435 E1.45582
G1 X86.142 Y48.475 E1.50605
G1 X87.288 Y48.595 E1.55635
G1 X88.422 Y48.794 E1.60661
G1 X89.539 Y49.071 E1.65685
G1 X90.635 Y49.425 E1.70713
G1 X91.703 Y49.855 E1.75739
G1 X92.739 Y50.357 E1.80764
G1 X93.737 Y50.93 E1.85788
G1 X94.694 Y51.572 E1.90819
G1 X95.603 Y52.278 E1.95843
G1 X96.461 Y53.045 E2.00867
G1 X97.264 Y53.87 E2.05893
G1 X98.008 Y54.749 E2.1092
G1 X98.689 Y55.677 E2.15945
G1 X99.304 Y56.651 E2.20973
G1 X99.85 Y57.665 E2.26001
G1 X100.324 Y58.714 E2.31026
G1 X100.724 Y59.793 E2.36049
G1 X101.048 Y60.898 E2.41076
G1 X101.295 Y62.023 E2.46104
G1 X101.463 Y63.162 E2.5113
G1 X101.551 Y64.31 E2.56157
G1 X101.566 Y65.01 E2.59213
G1 X101.566 Y84.991 E3.46438
G1 X101.526 Y86.142 E3.51466
G1 X101.406 Y87.287 E3.56491
G1 X101.207 Y88.421 E3.61517
G1 X100.93 Y89.538 E3.66541
G1 X100.576 Y90.634 E3.71569
G1 X100.147 Y91.702 E3.76593
G1 X99.644 Y92.738 E3.81621
G1 X99.071 Y93.737 E3.86648
G1 X98.43 Y94.693 E3.91673
G1 X97.724 Y95.602 E3.96697
G1 X96.957 Y96.461 E4.01724
G1 X96.131 Y97.264 E4.06753
G1 X95.253 Y98.008 E4.11777
G1 X94.324 Y98.689 E4.16805
G1 X93.351 Y99.303 E4.21828
G1 X92.337 Y99.849 E4.26855
G1 X91.288 Y100.323 E4.3188
G1 X90.208 Y100.723 E4.36908
G1 X89.104 Y101.048 E4.41932
G1 X87.979 Y101.294 E4.46959
G1 X86.84 Y101.463 E4.51986
G1 X85.692 Y101.551 E4.57012
G1 X84.991 Y101.566 E4.60073
G1 X65.009 Y101.566 E5.47302
G1 X63.858 Y101.526 E5.5233
G1 X62.713 Y101.406 E5.57355
G1 X61.579 Y101.207 E5.62381
G1 X60.462 Y100.93 E5.67405
G1 X59.366 Y100.576 E5.72433
G1 X58.298 Y100.147 E5.77457
G1 X57.262 Y99.644 E5.82485
G1 X56.263 Y99.071 E5.87512
G1 X55.307 Y98.43 E5.92537
G1 X54.398 Y97.724 E5.97561
G1 X53.539 Y96.957 E6.02588
G1 X52.736 Y96.131 E6.07617
G1 X51.992 Y95.253 E6.12641
G1 X51.311 Y94.324 E6.17669
G1 X50.697 Y93.351 E6.22692
G1 X50.151 Y92.337 E6.27719
G1 X49.677 Y91.288 E6.32745
G1 X49.277 Y90.208 E6.37772
G1 X48.952 Y89.104 E6.42796
G1 X48.706 Y87.979 E6.47823
G1 X48.537 Y86.84 E6.5285
G1 X48.449 Y85.692 E6.57876
G1 X48.434 Y84.991 E6.60937
G1 X48.434 Y65.009 E7.48166
G1 X48.474 Y63.858 E7.53194
G1 X48.594 Y62.713 E7.58219
G1 X48.793 Y61.579 E7.63245
G1 X49.07 Y60.462 E7.68269
G1 X49.424 Y59.366 E7.73297
G1 X49.853 Y58.298 E7.78321
G1 X50.356 Y57.262 E7.83349
G1 X50.929 Y56.263 E7.88376
G1 X51.57 Y55.307 E7.93401
G1 X52.276 Y54.398 E7.98425
G1 X53.043 Y53.539 E8.03452
G0 F1500 X53.389 Y53.686
G1 F1200 X54.212 Y52.898 E8.08426
G1 X55.088 Y52.171 E8.13396
G1 X56.013 Y51.506 E8.18369
G1 X56.983 Y50.908 E8.23344
G1 X57.992 Y50.38 E8.28315
G1 X59.036 Y49.924 E8.33288
G1 X60.109 Y49.542 E8.3826
G1 X61.206 Y49.236 E8.43232
G1 X62.322 Y49.008 E8.48204
G1 X63.452 Y48.859 E8.5318
G1 X65.01 Y48.784 E8.59989
G1 X84.992 Y48.785 E9.47218
G1 X86.13 Y48.825 E9.52189
G1 X87.263 Y48.945 E9.57163
G1 X88.385 Y49.144 E9.62137
G1 X89.49 Y49.421 E9.6711
G1 X90.572 Y49.775 E9.7208
G1 X91.627 Y50.204 E9.77052
G1 X92.65 Y50.706 E9.82026
G1 X93.635 Y51.279 E9.87001
G1 X94.577 Y51.919 E9.91972
G1 X95.472 Y52.624 E9.96946
G1 X96.315 Y53.39 E10.01918
G1 X97.102 Y54.213 E10.06889
G1 X97.83 Y55.09 E10.11865
G1 X98.494 Y56.015 E10.16835
G1 X99.092 Y56.985 E10.2181
G1 X99.621 Y57.994 E10.26783
G1 X100.077 Y59.038 E10.31756
G1 X100.459 Y60.111 E10.36728
G1 X100.764 Y61.208 E10.41699
G1 X100.992 Y62.324 E10.46671
G1 X101.141 Y63.454 E10.51647
G1 X101.216 Y65.01 E10.58447
G1 X101.216 Y84.991 E11.45672
G1 X101.176 Y86.129 E11.50643
G1 X101.056 Y87.262 E11.55617
G1 X100.857 Y88.384 E11.60591
G1 X100.58 Y89.489 E11.65564
G1 X100.226 Y90.571 E11.70534
G1 X99.797 Y91.627 E11.7551
G1 X99.295 Y92.649 E11.8048
G1 X98.722 Y93.634 E11.85455
G1 X98.082 Y94.576 E11.90426
G1 X97.377 Y95.471 E11.954
G1 X96.611 Y96.314 E12.00372
G1 X95.788 Y97.102 E12.05346
G1 X94.912 Y97.829 E12.10316
G1 X93.987 Y98.494 E12.15289
G1 X93.017 Y99.092 E12.20263
G1 X92.008 Y99.62 E12.25235
G1 X90.964 Y100.076 E12.30208
G1 X89.891 Y100.458 E12.3518
G1 X88.794 Y100.764 E12.40152
G1 X87.678 Y100.992 E12.45124
G1 X86.548 Y101.141 E12.501
G1 X84.991 Y101.216 E12.56904
G1 X65.009 Y101.216 E13.44134
G1 X63.871 Y101.176 E13.49105
G1 X62.738 Y101.056 E13.54078
G1 X61.616 Y100.857 E13.59053
G1 X60.511 Y100.58 E13.64026
G1 X59.429 Y100.226 E13.68995
G1 X58.373 Y99.797 E13.73971
G1 X57.351 Y99.295 E13.78942
G1 X56.366 Y98.722 E13.83916
G1 X55.424 Y98.082 E13.88888
G1 X54.529 Y97.377 E13.93861
G1 X53.686 Y96.611 E13.98834
G1 X52.898 Y95.788 E14.03808
G1 X52.171 Y94.912 E14.08777
G1 X51.506 Y93.987 E14.1375
G1 X50.908 Y93.017 E14.18725
G1 X50.38 Y92.008 E14.23696
G1 X49.924 Y90.964 E14.28669
G1 X49.542 Y89.891 E14.33641
G1 X49.236 Y88.794 E14.38613
G1 X49.008 Y87.678 E14.43585
G1 X48.859 Y86.548 E14.48561
G1 X48.784 Y84.991 E14.55366
G1 X48.784 Y65.009 E15.42595
G1 X48.824 Y63.871 E15.47566
G1 X48.944 Y62.738 E15.5254
G1 X49.143 Y61.616 E15.57514
G1 X49.42 Y60.511 E15.62487
G1 X49.774 Y59.429 E15.67457
G1 X50.203 Y58.373 E15.72433
G1 X50.705 Y57.351 E15.77403
G1 X51.278 Y56.366 E15.82378
G1 X51.918 Y55.424 E15.87349
G1 X52.623 Y54.529 E15.92323
G1 X53.389 Y53.686 E15.97295
G0 F1500 X53.733 Y53.834
G1 F1200 X54.555 Y53.062 E16.02218
G1 X55.428 Y52.351 E16.07133
G1 X56.35 Y51.703 E16.12052
G1 X57.316 Y51.123 E16.16971
G1 X58.32 Y50.612 E16.21889
G1 X59.358 Y50.174 E16.26807
G1 X60.425 Y49.81 E16.31729
G1 X61.515 Y49.523 E16.36649
G1 X62.622 Y49.315 E16.41566
G1 X63.741 Y49.185 E16.46484
G1 X65.01 Y49.134 E16.52028
G1 X84.992 Y49.135 E17.39257
G1 X86.118 Y49.175 E17.44176
G1 X87.238 Y49.295 E17.49093
G1 X88.347 Y49.494 E17.54012
G1 X89.439 Y49.771 E17.5893
G1 X90.509 Y50.125 E17.63849
G1 X91.551 Y50.554 E17.68769
G1 X92.56 Y51.056 E17.73688
G1 X93.531 Y51.628 E17.78608
G1 X94.458 Y52.267 E17.83523
G1 X95.339 Y52.971 E17.88446
G1 X96.166 Y53.735 E17.93361
G1 X96.938 Y54.556 E17.9828
G1 X97.649 Y55.43 E18.03199
G1 X98.297 Y56.352 E18.08118
G1 X98.878 Y57.318 E18.13039
G1 X99.388 Y58.322 E18.17955
G1 X99.827 Y59.36 E18.22875
G1 X100.19 Y60.427 E18.27795
G1 X100.477 Y61.516 E18.32711
G1 X100.686 Y62.624 E18.37634
G1 X100.815 Y63.743 E18.42551
G1 X100.866 Y65.01 E18.48086
G1 X100.866 Y84.991 E19.35311
G1 X100.826 Y86.117 E19.4023
G1 X100.706 Y87.237 E19.45147
G1 X100.507 Y88.347 E19.5007
G1 X100.23 Y89.439 E19.54988
G1 X99.876 Y90.508 E19.59903
G1 X99.447 Y91.55 E19.64823
G1 X98.946 Y92.559 E19.6974
G1 X98.374 Y93.53 E19.7466
G1 X97.734 Y94.458 E19.79581
G1 X97.031 Y95.338 E19.84498
G1 X96.267 Y96.166 E19.89416
G1 X95.445 Y96.938 E19.94339
G1 X94.572 Y97.649 E19.99254
G1 X93.65 Y98.297 E20.04173
G1 X92.684 Y98.877 E20.09092
G1 X91.68 Y99.388 E20.1401
G1 X90.642 Y99.826 E20.18928
G1 X89.575 Y100.19 E20.2385
G1 X88.485 Y100.477 E20.2877
G1 X87.378 Y100.685 E20.33687
G1 X86.259 Y100.815 E20.38605
G1 X84.991 Y100.866 E20.44145
G1 X65.009 Y100.866 E21.31374
G1 X63.883 Y100.826 E21.36292
G1 X62.763 Y100.706 E21.4121
G1 X61.653 Y100.507 E21.46132
G1 X60.561 Y100.23 E21.5105
G1 X59.492 Y99.876 E21.55966
G1 X58.45 Y99.447 E21.60885
G1 X57.441 Y98.946 E21.65803
G1 X56.47 Y98.374 E21.70723
G1 X55.542 Y97.734 E21.75644
G1 X54.662 Y97.031 E21.80561
G1 X53.834 Y96.267 E21.85479
G1 X53.062 Y95.445 E21.90402
G1 X52.351 Y94.572 E21.95317
G1 X51.703 Y93.65 E22.00236
G1 X51.123 Y92.684 E22.05155
G1 X50.612 Y91.68 E22.10073
G1 X50.174 Y90.642 E22.14991
G1 X49.81 Y89.575 E22.19912
G1 X49.523 Y88.485 E22.24833
G1 X49.315 Y87.378 E22.2975
G1 X49.185 Y86.259 E22.34668
G1 X49.134 Y84.991 E22.40207
G1 X49.134 Y65.009 E23.27437
G1 X49.174 Y63.883 E23.32355
G1 X49.294 Y62.763 E23.37272
G1 X49.493 Y61.653 E23.42195
G1 X49.77 Y60.561 E23.47113
G1 X50.124 Y59.492 E23.52029
G1 X50.553 Y58.45 E23.56948
G1 X51.054 Y57.441 E23.61866
G1 X51.626 Y56.47 E23.66786
G1 X52.266 Y55.542 E23.71707
G1 X52.969 Y54.662 E23.76624
G1 X53.733 Y53.834 E23.81542
G0 F1500 X54.078 Y53.984
G1 F1200 X54.897 Y53.229 E23.86404
G1 X55.768 Y52.534 E23.91269
G1 X56.687 Y51.903 E23.96135
G1 X57.648 Y51.34 E24.00997
G1 X58.648 Y50.847 E24.05864
G1 X59.68 Y50.427 E24.10728
G1 X60.739 Y50.083 E24.15589
G1 X61.821 Y49.815 E24.20455
G1 X62.919 Y49.625 E24.25319
G1 X64.028 Y49.515 E24.30184
G1 X65.01 Y49.484 E24.34473
G1 X84.992 Y49.485 E25.21703
G1 X86.105 Y49.525 E25.26564
G1 X87.213 Y49.645 E25.3143
G1 X88.31 Y49.844 E25.36297
G1 X89.389 Y50.121 E25.4116
G1 X90.445 Y50.475 E25.46022
G1 X91.474 Y50.903 E25.50887
G1 X92.469 Y51.405 E25.55752
G1 X93.426 Y51.976 E25.60616
G1 X94.339 Y52.615 E25.65481
G1 X95.204 Y53.317 E25.70344
G1 X96.016 Y54.08 E25.75208
G1 X96.772 Y54.899 E25.80074
G1 X97.467 Y55.77 E25.84938
G1 X98.097 Y56.688 E25.89799
G1 X98.66 Y57.65 E25.94665
G1 X99.153 Y58.649 E25.99528
G1 X99.573 Y59.681 E26.04392
G1 X99.918 Y60.741 E26.09258
G1 X100.185 Y61.823 E26.14123
G1 X100.375 Y62.921 E26.18987
G1 X100.485 Y64.03 E26.23852
G1 X100.516 Y65.01 E26.28133
G1 X100.516 Y84.991 E27.15357
G1 X100.476 Y86.105 E27.20224
G1 X100.356 Y87.212 E27.25084
G1 X100.157 Y88.309 E27.29951
G1 X99.88 Y89.388 E27.34814
G1 X99.527 Y90.445 E27.39679
G1 X99.098 Y91.473 E27.44542
G1 X98.597 Y92.468 E27.49405
G1 X98.025 Y93.425 E27.54272
G1 X97.387 Y94.338 E27.59134
G1 X96.684 Y95.203 E27.64
G1 X95.922 Y96.016 E27.68864
G1 X95.103 Y96.771 E27.73727
G1 X94.232 Y97.466 E27.78591
G1 X93.313 Y98.097 E27.83458
G1 X92.352 Y98.66 E27.8832
G1 X91.352 Y99.153 E27.93187
G1 X90.32 Y99.573 E27.98051
G1 X89.261 Y99.917 E28.02912
G1 X88.179 Y100.185 E28.07778
G1 X87.081 Y100.375 E28.12642
G1 X85.972 Y100.485 E28.17507
G1 X84.991 Y100.516 E28.21792
G1 X65.009 Y100.516 E29.09021
G1 X63.895 Y100.476 E29.13887
G1 X62.788 Y100.356 E29.18748
G1 X61.691 Y100.157 E29.23615
G1 X60.612 Y99.88 E29.28478
G1 X59.555 Y99.527 E29.33343
G1 X58.527 Y99.098 E29.38205
G1 X57.532 Y98.597 E29.43068
G1 X56.575 Y98.025 E29.47936
G1 X55.662 Y97.387 E29.52798
G1 X54.797 Y96.684 E29.57664
G1 X53.984 Y95.922 E29.62528
G1 X53.229 Y95.103 E29.67391
G1 X52.534 Y94.232 E29.72255
G1 X51.903 Y93.313 E29.77121
G1 X51.34 Y92.352 E29.81983
G1 X50.847 Y91.352 E29.8685
G1 X50.427 Y90.32 E29.91714
G1 X50.083 Y89.261 E29.96575
G1 X49.815 Y88.179 E30.01441
G1 X49.625 Y87.081 E30.06306
G1 X49.515 Y85.972 E30.11171
G1 X49.484 Y84.991 E30.15455
G1 X49.484 Y65.009 E31.02684
G1 X49.524 Y63.895 E31.07551
G1 X49.644 Y62.788 E31.12411
G1 X49.843 Y61.691 E31.17278
G1 X50.12 Y60.612 E31.22141
G1 X50.473 Y59.555 E31.27006
G1 X50.902 Y58.527 E31.31869
G1 X51.403 Y57.532 E31.36732
G1 X51.975 Y56.575 E31.41599
G1 X52.613 Y55.662 E31.46461
G1 X53.316 Y54.797 E31.51327
G1 X54.078 Y53.984 E31.56191
G0 F1500 X54.423 Y54.137
G1 F1200 X55.239 Y53.397 E31.61
G1 X56.107 Y52.719 E31.65808
G1 X57.022 Y52.106 E31.70616
G1 X57.98 Y51.56 E31.7543
G1 X58.974 Y51.086 E31.80237
G1 X60 Y50.685 E31.85046
G1 X61.052 Y50.359 E31.89854
G1 X62.125 Y50.11 E31.94662
G1 X63.214 Y49.941 E31.99473
G1 X64.312 Y49.85 E32.04283
G1 X65.01 Y49.834 E32.07331
G1 X84.992 Y49.835 E32.9456
G1 X86.093 Y49.875 E32.99369
G1 X87.188 Y49.995 E33.04178
G1 X88.271 Y50.194 E33.08985
G1 X89.338 Y50.471 E33.13797
G1 X90.381 Y50.824 E33.18604
G1 X91.396 Y51.253 E33.23414
G1 X92.377 Y51.754 E33.28223
G1 X93.319 Y52.325 E33.33032
G1 X94.218 Y52.962 E33.37841
G1 X95.067 Y53.663 E33.42648
G1 X95.864 Y54.424 E33.47458
G1 X96.603 Y55.241 E33.52267
G1 X97.281 Y56.109 E33.57075
G1 X97.895 Y57.024 E33.61886
G1 X98.44 Y57.981 E33.66693
G1 X98.915 Y58.976 E33.71507
G1 X99.316 Y60.002 E33.76315
G1 X99.641 Y61.054 E33.81122
G1 X99.89 Y62.127 E33.8593
G1 X100.06 Y63.216 E33.90742
G1 X100.15 Y64.314 E33.95551
G1 X100.166 Y65.01 E33.9859
G1 X100.166 Y84.991 E34.85815
G1 X100.126 Y86.092 E34.90625
G1 X100.006 Y87.187 E34.95433
G1 X99.807 Y88.271 E35.00245
G1 X99.53 Y89.337 E35.05053
G1 X99.177 Y90.38 E35.09859
G1 X98.748 Y91.395 E35.1467
G1 X98.248 Y92.376 E35.19476
G1 X97.677 Y93.319 E35.24289
G1 X97.039 Y94.217 E35.29098
G1 X96.338 Y95.067 E35.33907
G1 X95.577 Y95.863 E35.38715
G1 X94.761 Y96.603 E35.43523
G1 X93.893 Y97.281 E35.48332
G1 X92.978 Y97.894 E35.53139
G1 X92.02 Y98.44 E35.57953
G1 X91.026 Y98.914 E35.6276
G1 X90 Y99.315 E35.67569
G1 X88.948 Y99.641 E35.72377
G1 X87.875 Y99.89 E35.77186
G1 X86.786 Y100.059 E35.81996
G1 X85.688 Y100.15 E35.86806
G1 X84.991 Y100.166 E35.89849
G1 X65.009 Y100.166 E36.77079
G1 X63.908 Y100.126 E36.81888
G1 X62.813 Y100.006 E36.86697
G1 X61.729 Y99.807 E36.91508
G1 X60.663 Y99.53 E36.96316
G1 X59.62 Y99.177 E37.01123
G1 X58.605 Y98.748 E37.05933
G1 X57.624 Y98.248 E37.1074
G1 X56.681 Y97.677 E37.15552
G1 X55.783 Y97.039 E37.20361
G1 X54.933 Y96.338 E37.25171
G1 X54.137 Y95.577 E37.29978
G1 X53.397 Y94.761 E37.34787
G1 X52.719 Y93.893 E37.39595
G1 X52.106 Y92.978 E37.44403
G1 X51.56 Y92.02 E37.49217
G1 X51.086 Y91.026 E37.54024
G1 X50.685 Y90 E37.58833
G1 X50.359 Y88.948 E37.6364
G1 X50.11 Y87.875 E37.68449
G1 X49.941 Y86.786 E37.7326
G1 X49.85 Y85.688 E37.78069
G1 X49.834 Y84.991 E37.81113
G1 X49.834 Y65.009 E38.68342
G1 X49.874 Y63.908 E38.73152
G1 X49.994 Y62.813 E38.7796
G1 X50.193 Y61.729 E38.82772
G1 X50.47 Y60.663 E38.8758
G1 X50.823 Y59.62 E38.92386
G1 X51.252 Y58.605 E38.97197
G1 X51.752 Y57.624 E39.02003
G1 X52.323 Y56.681 E39.06816
G1 X52.961 Y55.783 E39.11625
G1 X53.662 Y54.933 E39.16434
G1 X54.423 Y54.137 E39.21242
G1 F1500 E29.21242
G0 F1500 X65.539 Y64.335
G0 X65.539 Y65.539
G0 X84.405 Y84.405
G0 X84.475 Y84.475
;TYPE:WALL-INNER
G1 F1500 E39.21242
G1 F1200 X65.525 Y84.475 E40.03966
G1 X65.525 Y65.525 E40.8669
G1 X84.475 Y65.525 E41.69414
G1 X84.475 Y84.475 E42.52138
G0 F1500 X84.8 Y84.8
;TYPE:WALL-OUTER
G1 F1200 X65.2 Y84.8 E43.377
G1 X65.2 Y65.2 E44.23262
G1 X84.8 Y65.2 E45.08824
G1 X84.8 Y84.8 E45.94385
G0 F1500 X84.6 Y84.8
G0 X84.415 Y84.415
G0 X84.135 Y84.135
;TYPE:SKIN
G1 F1200 X65.865 Y84.135 E46.74141
G1 X65.865 Y65.865 E47.53897
G1 X84.135 Y65.865 E48.33652
G1 X84.135 Y84.135 E49.13408
G0 F1500 X83.976 Y66.157
G0 X83.909 Y66.09
G1 F1200 X83.661 Y66.337 E49.15757
G1 X84.037 Y66.713
G0 F1500 X83.976 Y67.147
G1 F1200 X82.852 Y66.023 E49.22696
G1 X82.791 Y65.962
G0 F1500 X82.357 Y66.023
G1 F1200 X83.976 Y67.642 E49.32691
G1 X84.037 Y67.703
G0 F1500 X83.976 Y68.137
G1 F1200 X81.862 Y66.023 E49.45742
G1 X81.801 Y65.962
G0 F1500 X81.367 Y66.023
G1 F1200 X83.976 Y68.632 E49.61849
G1 X84.037 Y68.693
G0 F1500 X83.976 Y69.127
G1 F1200 X80.872 Y66.023 E49.81012
G1 X80.811 Y65.962
G0 F1500 X80.377 Y66.023
G1 F1200 X83.976 Y69.622 E50.03231
G1 X84.037 Y69.683
G0 F1500 X83.976 Y70.117
G1 F1200 X79.882 Y66.023 E50.28505
G1 X79.821 Y65.962
G0 F1500 X79.387 Y66.023
G1 F1200 X83.976 Y70.612 E50.56836
G1 X84.037 Y70.673
G0 F1500 X83.976 Y71.107
G1 F1200 X78.892 Y66.023 E50.88222
G1 X78.831 Y65.962
G0 F1500 X78.397 Y66.023
G1 F1200 X83.976 Y71.602 E51.22665
G1 X84.037 Y71.663
G0 F1500 X83.976 Y72.097
G1 F1200 X77.902 Y66.023 E51.60163
G1 X77.841 Y65.962
G0 F1500 X77.407 Y66.023
G1 F1200 X83.976 Y72.592 E52.00718
G1 X84.037 Y72.653
G0 F1500 X83.976 Y73.087
G1 F1200 X76.912 Y66.023 E52.44328
G1 X76.851 Y65.962
G0 F1500 X76.417 Y66.023
G1 F1200 X83.976 Y73.582 E52.90994
G1 X84.037 Y73.643
G0 F1500 X83.976 Y74.077
G1 F1200 X75.922 Y66.023 E53.40716
G1 X75.861 Y65.962
G0 F1500 X75.427 Y66.023
G1 F1200 X83.976 Y74.572 E53.93494
G1 X84.037 Y74.633
G0 F1500 X83.976 Y75.067
G1 F1200 X74.932 Y66.023 E54.49329
G1 X74.871 Y65.962
G0 F1500 X74.437 Y66.023
G1 F1200 X83.976 Y75.562 E55.08218
G1 X84.037 Y75.623
G0 F1500 X83.976 Y76.057
G1 F1200 X73.942 Y66.023 E55.70164
G1 X73.881 Y65.962
G0 F1500 X73.447 Y66.023
