;FLAVOR:Marlin
;TIME:3197
;Filament used: 2.0929m
;Layer height: 0.2
;Generated with Cura_SteamEngine 3.4.1
M190 S50
M104 S195
M109 S195
M82 ;absolute extrusion mode
G28 ;Home
G1 Z15.0 F6000 ;Move the platform down 15mm
;Prime the extruder
G92 E0
G1 F200 E3
G92 E0
G92 E0
G1 F1500 E-10
;LAYER_COUNT:500
;LAYER:0
M107
G0 F1500 X47.859 Y41.786 Z0.3
;TYPE:SKIRT
G1 F1500 E0
G1 F1200 X48.62 Y40.922 E0.05026
G1 X49.44 Y40.113 E0.10055
G1 X50.313 Y39.363 E0.15079
G1 X51.236 Y38.675 E0.20104
G1 X52.205 Y38.053 E0.25131
G1 X53.215 Y37.5 E0.30158
G1 X54.261 Y37.018 E0.35185
G1 X55.337 Y36.61 E0.40209
G1 X56.44 Y36.278 E0.45237
G1 X57.562 Y36.023 E0.5026
G1 X58.7 Y35.846 E0.55288
G1 X59.847 Y35.749 E0.60313
G1 X60.998 Y35.732 E0.65338
G1 X62.148 Y35.795 E0.70365
G1 X62.776 Y35.863 E0.73123
G1 X65.538 Y36.217 E0.85279
G1 X70.339 Y36.62 E1.06311
G1 X75.058 Y36.748 E1.26919
G1 X79.77 Y36.61 E1.47497
G1 X84.621 Y36.192 E1.68752
G1 X87.251 Y35.859 E1.80325
G1 X88.398 Y35.754 E1.85353
G1 X89.549 Y35.729 E1.90379
G1 X90.699 Y35.785 E1.95405
G1 X91.842 Y35.919 E2.00428
G1 X92.973 Y36.133 E2.05453
G1 X94.087 Y36.425 E2.10481
G1 X95.178 Y36.794 E2.15508
G1 X96.24 Y37.237 E2.20532
G1 X97.27 Y37.753 E2.25561
G1 X98.26 Y38.34 E2.30585
G1 X99.208 Y38.993 E2.3561
G1 X100.108 Y39.711 E2.40636
G1 X100.957 Y40.49 E2.45666
G1 X101.749 Y41.325 E2.5069
G1 X102.481 Y42.214 E2.55717
G1 X103.149 Y43.151 E2.6074
G1 X103.751 Y44.133 E2.65769
G1 X104.284 Y45.154 E2.70797
G1 X104.744 Y46.209 E2.75821
G1 X105.13 Y47.294 E2.80848
G1 X105.44 Y48.403 E2.85875
G1 X105.573 Y49.001 E2.88549
G1 X106.66 Y54.346 E3.1236
G1 X107.857 Y58.879 E3.32826
G1 X109.319 Y63.369 E3.5344
G1 X111.037 Y67.782 E3.74113
G1 X113.274 Y72.695 E3.97678
G1 X113.714 Y73.759 E4.02705
G1 X114.08 Y74.851 E4.07732
G1 X114.369 Y75.966 E4.12761
G1 X114.579 Y77.097 E4.17782
G1 X114.711 Y78.241 E4.22809
G1 X114.763 Y79.391 E4.27835
G1 X114.735 Y80.542 E4.32861
G1 X114.627 Y81.689 E4.3789
G1 X114.44 Y82.825 E4.42916
G1 X114.175 Y83.945 E4.4794
G1 X113.832 Y85.044 E4.52966
G1 X113.414 Y86.117 E4.57993
G1 X112.922 Y87.158 E4.63019
G1 X112.359 Y88.162 E4.68044
G1 X111.728 Y89.125 E4.7307
G1 X111.032 Y90.042 E4.78096
G1 X110.273 Y90.909 E4.83126
G1 X109.457 Y91.72 E4.88148
G1 X108.586 Y92.473 E4.93174
G1 X107.664 Y93.164 E4.98204
G1 X106.349 Y93.991 E5.04985
G1 X101.566 Y96.696 E5.28973
G1 X97.617 Y99.243 E5.49486
G1 X93.812 Y102.014 E5.70035
G1 X90.143 Y105.017 E5.90732
G1 X86.196 Y108.633 E6.141
G1 X85.321 Y109.381 E6.19125
G1 X84.396 Y110.066 E6.2415
G1 X83.425 Y110.685 E6.29177
G1 X82.414 Y111.236 E6.34203
G1 X81.367 Y111.714 E6.39227
G1 X80.289 Y112.12 E6.44256
G1 X79.186 Y112.449 E6.4928
G1 X78.062 Y112.701 E6.54309
G1 X76.924 Y112.874 E6.59334
G1 X75.776 Y112.968 E6.64362
G1 X74.625 Y112.982 E6.69387
G1 X73.476 Y112.916 E6.74411
G1 X72.334 Y112.77 E6.79437
G1 X71.204 Y112.546 E6.84466
G1 X70.093 Y112.243 E6.89493
G1 X69.006 Y111.864 E6.94518
G1 X67.948 Y111.411 E6.99542
G1 X66.924 Y110.885 E7.04568
G1 X65.938 Y110.29 E7.09595
G1 X64.997 Y109.627 E7.1462
G1 X63.8 Y108.63 E7.21421
G1 X59.744 Y104.912 E7.4544
G1 X56.111 Y101.952 E7.65897
G1 X52.288 Y99.18 E7.86511
G1 X48.31 Y96.627 E8.07146
G1 X43.647 Y93.988 E8.30535
G1 X42.665 Y93.386 E8.35564
G1 X41.728 Y92.718 E8.40587
G1 X40.839 Y91.986 E8.45614
G1 X40.003 Y91.195 E8.50638
G1 X39.224 Y90.347 E8.55665
G1 X38.506 Y89.447 E8.60691
G1 X37.852 Y88.5 E8.65715
G1 X37.265 Y87.509 E8.70743
G1 X36.748 Y86.48 E8.7577
G1 X36.304 Y85.418 E8.80795
G1 X35.935 Y84.327 E8.85823
G1 X35.643 Y83.214 E8.90846
G1 X35.429 Y82.082 E8.95875
G1 X35.293 Y80.939 E9.009
G1 X35.238 Y79.789 E9.05926
G1 X35.262 Y78.638 E9.10951
G1 X35.366 Y77.491 E9.15979
G1 X35.549 Y76.355 E9.21002
G1 X35.811 Y75.233 E9.26032
G1 X36.151 Y74.133 E9.31058
G1 X36.729 Y72.689 E9.37848
G1 X39.053 Y67.59 E9.6231
G1 X39.905 Y65.48 E9.72243
G1 X40.678 Y63.396 E9.81946
G1 X42.159 Y58.818 E10.02951
G1 X43.364 Y54.22 E10.23701
G1 X44.429 Y48.994 E10.46983
G1 X44.698 Y47.874 E10.52012
G1 X45.044 Y46.776 E10.57037
G1 X45.465 Y45.705 E10.62061
G1 X45.96 Y44.665 E10.67089
G1 X46.526 Y43.662 E10.72116
G1 X47.16 Y42.701 E10.77142
G1 X47.859 Y41.786 E10.82169
G0 F1500 X48.184 Y41.943
G1 F1200 X48.942 Y41.093 E10.8714
G1 X49.757 Y40.297 E10.92114
G1 X50.626 Y39.561 E10.97085
G1 X51.545 Y38.888 E11.02057
G1 X52.509 Y38.281 E11.0703
G1 X53.513 Y37.743 E11.12003
G1 X54.552 Y37.276 E11.16976
G1 X55.622 Y36.884 E11.2195
G1 X56.716 Y36.568 E11.26921
G1 X57.83 Y36.329 E11.31895
G1 X58.958 Y36.17 E11.36868
G1 X60.094 Y36.089 E11.41839
G1 X61.233 Y36.089 E11.46811
G1 X62.731 Y36.21 E11.53372
G1 X65.508 Y36.566 E11.65594
G1 X70.318 Y36.969 E11.86665
G1 X75.058 Y37.099 E12.07365
G1 X79.793 Y36.96 E12.28044
G1 X84.645 Y36.541 E12.49304
G1 X87.295 Y36.206 E12.60964
G1 X88.429 Y36.103 E12.65935
G1 X89.568 Y36.08 E12.70908
G1 X90.706 Y36.136 E12.75882
G1 X91.837 Y36.273 E12.80855
G1 X92.955 Y36.488 E12.85825
G1 X94.056 Y36.782 E12.908
G1 X95.133 Y37.151 E12.9577
G1 X96.182 Y37.596 E13.00744
G1 X97.197 Y38.113 E13.05716
G1 X98.174 Y38.7 E13.10692
G1 X99.106 Y39.354 E13.15662
G1 X99.991 Y40.072 E13.20637
G1 X100.823 Y40.85 E13.2561
G1 X101.598 Y41.685 E13.30583
G1 X102.313 Y42.572 E13.35556
G1 X102.963 Y43.506 E13.40524
G1 X103.547 Y44.485 E13.455
G1 X104.061 Y45.502 E13.50475
G1 X104.502 Y46.552 E13.55446
G1 X104.868 Y47.631 E13.6042
G1 X105.23 Y49.07 E13.66898
G1 X106.319 Y54.424 E13.90748
G1 X107.523 Y58.983 E14.11333
G1 X108.993 Y63.499 E14.32065
G1 X110.711 Y67.912 E14.52738
G1 X112.955 Y72.84 E14.76376
G1 X113.391 Y73.893 E14.81351
G1 X113.751 Y74.974 E14.86325
G1 X114.035 Y76.077 E14.91297
G1 X114.24 Y77.197 E14.96267
G1 X114.367 Y78.329 E15.0124
G1 X114.414 Y79.468 E15.06216
G1 X114.38 Y80.606 E15.11186
G1 X114.267 Y81.74 E15.16161
G1 X114.075 Y82.862 E15.2113
G1 X113.805 Y83.969 E15.26105
G1 X113.457 Y85.054 E15.31079
G1 X113.034 Y86.112 E15.36053
G1 X112.538 Y87.137 E15.41024
G1 X111.971 Y88.125 E15.45996
G1 X111.337 Y89.071 E15.50968
G1 X110.637 Y89.97 E15.55942
G1 X109.877 Y90.818 E15.60913
G1 X109.058 Y91.61 E15.65886
G1 X108.186 Y92.343 E15.70859
G1 X107.265 Y93.013 E15.75831
G1 X106.177 Y93.686 E15.81415
G1 X101.395 Y96.391 E16.05399
G1 X97.411 Y98.96 E16.26093
G1 X93.594 Y101.739 E16.46704
G1 X89.923 Y104.745 E16.67417
G1 X85.96 Y108.375 E16.90877
G1 X85.093 Y109.114 E16.9585
G1 X84.177 Y109.791 E17.00823
G1 X83.216 Y110.402 E17.05794
G1 X82.214 Y110.944 E17.10767
G1 X81.176 Y111.414 E17.15741
G1 X80.108 Y111.811 E17.20715
G1 X79.015 Y112.131 E17.25687
G1 X77.902 Y112.374 E17.3066
G1 X76.775 Y112.539 E17.35632
G1 X75.639 Y112.623 E17.40605
G1 X74.5 Y112.628 E17.45577
G1 X73.363 Y112.553 E17.50551
G1 X72.235 Y112.399 E17.55521
G1 X71.12 Y112.165 E17.60495
G1 X70.024 Y111.854 E17.65468
G1 X68.953 Y111.467 E17.70439
G1 X67.911 Y111.006 E17.75413
G1 X66.905 Y110.472 E17.80385
G1 X65.938 Y109.87 E17.85358
G1 X65.016 Y109.201 E17.9033
G1 X64.037 Y108.372 E17.95931
G1 X59.981 Y104.654 E18.1995
G1 X56.317 Y101.668 E18.40584
G1 X52.484 Y98.89 E18.61249
G1 X48.494 Y96.329 E18.81946
G1 X43.819 Y93.683 E19.05396
G1 X42.848 Y93.088 E19.10367
G1 X41.922 Y92.426 E19.15337
G1 X41.043 Y91.7 E19.20313
G1 X40.218 Y90.915 E19.25285
G1 X39.45 Y90.073 E19.3026
G1 X38.743 Y89.18 E19.35232
G1 X38.101 Y88.24 E19.40201
G1 X37.526 Y87.256 E19.45176
G1 X37.021 Y86.235 E19.50149
G1 X36.59 Y85.181 E19.55119
G1 X36.233 Y84.099 E19.60093
G1 X35.953 Y82.995 E19.65065
G1 X35.751 Y81.874 E19.70038
G1 X35.629 Y80.741 E19.75012
G1 X35.586 Y79.603 E19.79984
G1 X35.623 Y78.464 E19.84958
G1 X35.74 Y77.331 E19.89931
G1 X35.936 Y76.209 E19.94903
G1 X36.211 Y75.103 E19.99878
G1 X36.562 Y74.02 E20.04848
G1 X37.047 Y72.834 E20.10441
G1 X39.383 Y67.709 E20.35028
G1 X40.226 Y65.621 E20.44858
G1 X41.007 Y63.515 E20.54664
G1 X42.499 Y58.904 E20.7582
G1 X43.702 Y54.311 E20.96547
G1 X44.772 Y49.063 E21.19927
G1 X45.038 Y47.956 E21.24897
G1 X45.382 Y46.87 E21.2987
G1 X45.801 Y45.811 E21.34842
G1 X46.293 Y44.783 E21.39817
G1 X46.856 Y43.793 E21.44789
G1 X47.488 Y42.845 E21.49763
G1 X48.184 Y41.943 E21.54736
G0 F1500 X48.508 Y42.101
G1 F1200 X49.262 Y41.264 E21.59654
G1 X50.074 Y40.483 E21.64572
G1 X50.939 Y39.761 E21.69491
G1 X51.854 Y39.102 E21.74413
G1 X52.812 Y38.51 E21.79329
G1 X53.81 Y37.988 E21.84246
G1 X54.843 Y37.537 E21.89166
G1 X55.905 Y37.161 E21.94084
G1 X56.992 Y36.861 E21.99007
G1 X58.096 Y36.639 E22.03923
G1 X59.214 Y36.496 E22.08843
G1 X60.339 Y36.432 E22.13762
G1 X61.465 Y36.449 E22.18678
G1 X62.687 Y36.558 E22.24034
G1 X65.458 Y36.913 E22.36229
G1 X70.297 Y37.319 E22.57428
G1 X75.059 Y37.449 E22.78223
G1 X79.816 Y37.309 E22.98998
G1 X84.67 Y36.89 E23.20267
G1 X87.339 Y36.553 E23.32011
G1 X88.461 Y36.452 E23.36928
G1 X89.587 Y36.43 E23.41845
G1 X90.713 Y36.488 E23.46767
G1 X91.831 Y36.626 E23.51684
G1 X92.937 Y36.843 E23.56604
G1 X94.024 Y37.138 E23.61521
G1 X95.088 Y37.509 E23.6644
G1 X96.123 Y37.955 E23.7136
G1 X97.124 Y38.473 E23.7628
G1 X98.085 Y39.06 E23.81196
G1 X99.002 Y39.715 E23.86116
G1 X99.871 Y40.433 E23.91036
G1 X100.686 Y41.21 E23.95952
G1 X101.445 Y42.044 E24.00875
G1 X102.142 Y42.929 E24.05792
G1 X102.774 Y43.861 E24.10708
G1 X103.339 Y44.836 E24.15627
G1 X103.834 Y45.849 E24.20549
G1 X104.255 Y46.894 E24.25467
G1 X104.601 Y47.966 E24.30385
G1 X104.887 Y49.14 E24.3566
G1 X105.976 Y54.494 E24.59511
G1 X107.19 Y59.092 E24.8027
G1 X108.662 Y63.614 E25.0103
G1 X110.389 Y68.049 E25.21807
G1 X112.637 Y72.986 E25.45488
G1 X113.067 Y74.027 E25.50405
G1 X113.422 Y75.096 E25.55322
G1 X113.701 Y76.188 E25.60242
G1 X113.901 Y77.297 E25.65161
G1 X114.023 Y78.417 E25.7008
G1 X114.064 Y79.543 E25.74998
G1 X114.025 Y80.669 E25.79917
G1 X113.907 Y81.79 E25.84837
G1 X113.71 Y82.899 E25.89754
G1 X113.434 Y83.992 E25.94675
G1 X113.082 Y85.062 E25.99593
G1 X112.654 Y86.104 E26.0451
G1 X112.154 Y87.114 E26.0943
G1 X111.583 Y88.085 E26.14347
G1 X110.945 Y89.014 E26.19267
G1 X110.242 Y89.895 E26.24187
G1 X109.479 Y90.724 E26.29106
G1 X108.659 Y91.497 E26.34025
G1 X107.786 Y92.209 E26.38943
G1 X106.865 Y92.858 E26.43861
G1 X106.005 Y93.382 E26.48257
G1 X101.202 Y96.098 E26.72345
G1 X97.213 Y98.671 E26.93066
G1 X93.385 Y101.459 E27.13739
G1 X89.685 Y104.488 E27.34614
G1 X85.723 Y108.117 E27.58068
G1 X84.866 Y108.848 E27.62985
G1 X83.959 Y109.516 E27.67903
G1 X83.007 Y110.119 E27.72822
G1 X82.014 Y110.652 E27.77742
G1 X80.987 Y111.114 E27.82658
G1 X79.929 Y111.502 E27.87577
G1 X78.846 Y111.813 E27.92496
G1 X77.744 Y112.047 E27.97414
G1 X76.628 Y112.202 E28.02332
G1 X75.503 Y112.278 E28.07255
G1 X74.377 Y112.274 E28.1217
G1 X73.253 Y112.19 E28.1709
G1 X72.138 Y112.026 E28.2201
G1 X71.038 Y111.784 E28.26927
G1 X69.957 Y111.464 E28.31848
G1 X68.902 Y111.068 E28.36768
G1 X67.878 Y110.599 E28.41684
G1 X66.889 Y110.058 E28.46605
G1 X65.942 Y109.448 E28.51523
G1 X65.04 Y108.773 E28.56441
G1 X64.273 Y108.114 E28.60855
G1 X60.209 Y104.389 E28.84921
G1 X56.533 Y101.394 E29.0562
G1 X52.68 Y98.601 E29.26394
G1 X48.671 Y96.027 E29.47192
G1 X43.992 Y93.379 E29.70662
G1 X43.032 Y92.789 E29.75581
G1 X42.115 Y92.133 E29.80503
G1 X41.248 Y91.414 E29.8542
G1 X40.434 Y90.635 E29.90338
G1 X39.678 Y89.8 E29.95255
G1 X38.982 Y88.914 E30.00174
G1 X38.351 Y87.98 E30.05094
G1 X37.788 Y87.004 E30.10013
G1 X37.295 Y85.991 E30.14931
G1 X36.876 Y84.945 E30.1985
G1 X36.532 Y83.872 E30.24769
G1 X36.265 Y82.777 E30.29689
G1 X36.076 Y81.666 E30.34608
G1 X35.966 Y80.545 E30.39526
G1 X35.937 Y79.419 E30.44443
G1 X35.987 Y78.293 E30.49363
G1 X36.117 Y77.174 E30.54281
G1 X36.326 Y76.066 E30.59203
G1 X36.613 Y74.977 E30.64119
G1 X36.976 Y73.91 E30.69039
G1 X37.365 Y72.979 E30.73444
G1 X39.704 Y67.847 E30.98064
G1 X40.57 Y65.702 E31.08162
G1 X41.332 Y63.648 E31.17726
G1 X42.837 Y58.995 E31.39074
G1 X44.042 Y54.398 E31.5982
G1 X45.115 Y49.133 E31.83276
G1 X45.379 Y48.038 E31.88193
G1 X45.72 Y46.964 E31.93112
G1 X46.136 Y45.917 E31.9803
G1 X46.626 Y44.902 E32.0295
G1 X47.187 Y43.925 E32.07869
G1 X47.815 Y42.989 E32.12789
G1 X48.508 Y42.101 E32.17706
G0 F1500 X48.832 Y42.26
G1 F1200 X49.583 Y41.437 E32.2257
G1 X50.391 Y40.669 E32.27436
G1 X51.252 Y39.962 E32.323
G1 X52.161 Y39.318 E32.37163
G1 X53.115 Y38.741 E32.4203
G1 X54.107 Y38.234 E32.46893
G1 X55.133 Y37.8 E32.51756
G1 X56.188 Y37.44 E32.56623
G1 X57.265 Y37.157 E32.61484
G1 X58.36 Y36.952 E32.66347
G1 X59.468 Y36.826 E32.71215
G1 X60.581 Y36.779 E32.76078
G1 X61.695 Y36.813 E32.80943
G1 X62.642 Y36.905 E32.85097
G1 X65.408 Y37.259 E32.9727
G1 X70.293 Y37.669 E33.1867
G1 X75.06 Y37.799 E33.39487
G1 X79.821 Y37.659 E33.6028
G1 X84.744 Y37.235 E33.8185
G1 X87.383 Y36.901 E33.93462
G1 X88.492 Y36.801 E33.98323
G1 X89.606 Y36.78 E34.03187
G1 X90.719 Y36.84 E34.08053
G1 X91.825 Y36.98 E34.1292
G1 X92.917 Y37.198 E34.17781
G1 X93.992 Y37.494 E34.22648
G1 X95.042 Y37.867 E34.27512
G1 X96.062 Y38.314 E34.32374
G1 X97.048 Y38.833 E34.37238
G1 X97.995 Y39.421 E34.42104
G1 X98.896 Y40.076 E34.46967
G1 X99.749 Y40.793 E34.51831
G1 X100.548 Y41.57 E34.56697
G1 X101.288 Y42.402 E34.61557
G1 X101.968 Y43.286 E34.66426
G1 X102.582 Y44.215 E34.71287
G1 X103.128 Y45.187 E34.76154
G1 X103.603 Y46.195 E34.81018
G1 X104.004 Y47.234 E34.8588
G1 X104.33 Y48.3 E34.90746
G1 X104.544 Y49.21 E34.94827
G1 X105.636 Y54.581 E35.18753
G1 X106.853 Y59.189 E35.39559
G1 X108.329 Y63.723 E35.60374
G1 X110.07 Y68.194 E35.81319
G1 X112.318 Y73.131 E36.05
G1 X112.743 Y74.161 E36.09864
G1 X113.093 Y75.218 E36.14725
G1 X113.367 Y76.299 E36.19593
G1 X113.562 Y77.396 E36.24457
G1 X113.678 Y78.504 E36.2932
G1 X113.714 Y79.618 E36.34186
G1 X113.67 Y80.731 E36.39048
G1 X113.546 Y81.838 E36.43911
G1 X113.344 Y82.934 E36.48776
G1 X113.063 Y84.012 E36.53639
G1 X112.706 Y85.068 E36.58505
G1 X112.274 Y86.095 E36.63369
G1 X111.769 Y87.088 E36.68232
G1 X111.194 Y88.043 E36.73099
G1 X110.552 Y88.954 E36.77964
G1 X109.847 Y89.816 E36.82825
G1 X109.082 Y90.626 E36.87689
G1 X108.26 Y91.379 E36.92555
G1 X107.387 Y92.071 E36.97418
G1 X106.466 Y92.699 E37.02284
G1 X105.832 Y93.077 E37.05507
G1 X101.03 Y95.793 E37.2959
G1 X97.028 Y98.374 E37.50378
G1 X93.156 Y101.194 E37.71289
G1 X89.465 Y104.215 E37.9211
G1 X85.487 Y107.859 E38.15661
G1 X84.639 Y108.581 E38.20522
G1 X83.741 Y109.241 E38.25387
G1 X82.798 Y109.835 E38.30253
G1 X81.815 Y110.36 E38.35117
G1 X80.797 Y110.813 E38.39982
G1 X79.749 Y111.192 E38.44846
G1 X78.677 Y111.494 E38.49708
G1 X77.586 Y111.719 E38.54571
G1 X76.481 Y111.865 E38.59437
G1 X75.369 Y111.932 E38.643
G1 X74.254 Y111.918 E38.69168
G1 X73.144 Y111.825 E38.7403
G1 X72.043 Y111.652 E38.78896
G1 X70.958 Y111.401 E38.83757
G1 X69.893 Y111.072 E38.88623
G1 X68.855 Y110.668 E38.93486
G1 X67.848 Y110.19 E38.98352
G1 X66.878 Y109.642 E39.03215
G1 X65.95 Y109.025 E39.0808
G1 X65.068 Y108.344 E39.12944
G1 X64.51 Y107.856 E39.1618
G1 X60.437 Y104.122 E39.40302
G1 X56.753 Y101.121 E39.61044
G1 X52.873 Y98.308 E39.81965
G1 X48.855 Y95.729 E40.02807
G1 X44.164 Y93.074 E40.26338
G1 X43.215 Y92.491 E40.312
G1 X42.31 Y91.841 E40.36064
G1 X41.454 Y91.128 E40.40927
G1 X40.651 Y90.355 E40.45793
G1 X39.905 Y89.527 E40.50658
G1 X39.221 Y88.647 E40.55524
G1 X38.602 Y87.721 E40.60386
G1 X38.051 Y86.753 E40.65248
G1 X37.571 Y85.747 E40.70114
G1 X37.164 Y84.71 E40.74977
G1 X36.832 Y83.646 E40.79843
G1 X36.578 Y82.561 E40.84707
G1 X36.402 Y81.461 E40.89571
G1 X36.306 Y80.351 E40.94434
G1 X36.289 Y79.236 E40.99302
G1 X36.353 Y78.124 E41.04165
G1 X36.496 Y77.019 E41.09028
G1 X36.718 Y75.927 E41.13893
G1 X37.017 Y74.854 E41.18756
G1 X37.393 Y73.805 E41.2362
G1 X37.684 Y73.125 E41.26849
G1 X40.022 Y67.995 E41.5146
G1 X40.887 Y65.854 E41.6154
G1 X41.666 Y63.752 E41.71326
G1 X43.169 Y59.107 E41.92638
G1 X44.386 Y54.463 E42.13596
G1 X45.458 Y49.203 E42.3703
G1 X45.719 Y48.12 E42.41893
G1 X46.058 Y47.059 E42.46755
G1 X46.472 Y46.024 E42.51621
G1 X46.959 Y45.022 E42.56485
G1 X47.517 Y44.057 E42.61351
G1 X48.142 Y43.135 E42.66213
G1 X48.832 Y42.26 E42.71078
G0 F1500 X49.156 Y42.42
G1 F1200 X49.903 Y41.611 E42.75885
G1 X50.707 Y40.858 E42.80693
G1 X51.564 Y40.165 E42.85505
G1 X52.468 Y39.536 E42.90312
G1 X53.416 Y38.975 E42.95121
G1 X54.402 Y38.484 E42.99929
G1 X55.422 Y38.066 E43.04741
