; G-Code generated by Simplify3D(R) Version 4.0.0
; Oct 11, 2019 at 6:19:24 PM
; Settings Summary
;   processName,Process1
;   applyToModels,gecko
;   profileName,Z6
;   profileVersion,2019-10-11 12:28:38
;   baseProfile,Default (modified)
;   printMaterial,PLA
;   printQuality,Medium
;   printExtruders,
;   extruderName,Primary Extruder
;   extruderToolheadNumber,0
;   extruderDiameter,0.4
;   extruderAutoWidth,1
;   extruderWidth,0.48
;   extrusionMultiplier,1
;   extruderUseRetract,1
;   extruderRetractionDistance,5
;   extruderExtraRestartDistance,0
;   extruderRetractionZLift,1
;   extruderRetractionSpeed,1800
;   extruderUseCoasting,1
;   extruderCoastingDistance,0.2
;   extruderUseWipe,1
;   extruderWipeDistance,5
;   primaryExtruder,0
;   layerHeight,0.2
;   topSolidLayers,5
;   bottomSolidLayers,4
;   perimeterOutlines,3
;   printPerimetersInsideOut,1
;   startPointOption,3
;   startPointOriginX,75
;   startPointOriginY,75
;   sequentialIslands,0
;   spiralVaseMode,0
;   firstLayerHeightPercentage,95
;   firstLayerWidthPercentage,105
;   firstLayerUnderspeed,0.4
;   useRaft,0
;   raftExtruder,0
;   raftTopLayers,3
;   raftBaseLayers,2
;   raftOffset,3
;   raftSeparationDistance,0.14
;   raftTopInfill,100
;   aboveRaftSpeedMultiplier,0.3
;   useSkirt,1
;   skirtExtruder,999
;   skirtLayers,2
;   skirtOutlines,5
;   skirtOffset,0
;   usePrimePillar,0
;   primePillarExtruder,999
;   primePillarWidth,12
;   primePillarLocation,7
;   primePillarSpeedMultiplier,1
;   useOozeShield,0
;   oozeShieldExtruder,999
;   oozeShieldOffset,2
;   oozeShieldOutlines,1
;   oozeShieldSidewallShape,1
;   oozeShieldSidewallAngle,30
;   oozeShieldSpeedMultiplier,1
;   infillExtruder,0
;   internalInfillPattern,Rectilinear
;   externalInfillPattern,Rectilinear
;   infillPercentage,30
;   outlineOverlapPercentage,15
;   infillExtrusionWidthPercentage,100
;   minInfillLength,5
;   infillLayerInterval,1
;   internalInfillAngles,45,-45
;   overlapInternalInfillAngles,0
;   externalInfillAngles,45,-45
;   generateSupport,0
;   supportExtruder,0
;   supportInfillPercentage,15
;   supportExtraInflation,0
;   supportBaseLayers,2
;   denseSupportExtruder,0
;   denseSupportLayers,2
;   denseSupportInfillPercentage,70
;   supportLayerInterval,1
;   supportHorizontalPartOffset,0.3
;   supportUpperSeparationLayers,1
;   supportLowerSeparationLayers,1
;   supportType,1
;   supportGridSpacing,4
;   maxOverhangAngle,45
;   supportAngles,45
;   temperatureName,Primary Extruder,bed
;   temperatureNumber,0,0
;   temperatureSetpointCount,1,1
;   temperatureSetpointLayers,1,1
;   temperatureSetpointTemperatures,205,60
;   temperatureStabilizeAtStartup,1,1
;   temperatureHeatedBed,0,1
;   temperatureRelayBetweenLayers,0,0
;   temperatureRelayBetweenLoops,0,0
;   fanLayers,1,2
;   fanSpeeds,0,100
;   blipFanToFullPower,0
;   adjustSpeedForCooling,1
;   minSpeedLayerTime,15
;   minCoolingSpeedSlowdown,25
;   increaseFanForCooling,0
;   minFanLayerTime,45
;   maxCoolingFanSpeed,100
;   increaseFanForBridging,0
;   bridgingFanSpeed,100
;   use5D,1
;   relativeEdistances,0
;   allowEaxisZeroing,1
;   independentExtruderAxes,0
;   includeM10123,0
;   stickySupport,1
;   applyToolheadOffsets,0
;   gcodeXoffset,0
;   gcodeYoffset,0
;   gcodeZoffset,0
;   overrideMachineDefinition,1
;   machineTypeOverride,0
;   strokeXoverride,150
;   strokeYoverride,150
;   strokeZoverride,150
;   originOffsetXoverride,0
;   originOffsetYoverride,0
;   originOffsetZoverride,0
;   homeXdirOverride,-1
;   homeYdirOverride,-1
;   homeZdirOverride,-1
;   flipXoverride,1
;   flipYoverride,-1
;   flipZoverride,1
;   toolheadOffsets,0,0|0,0|0,0|0,0|0,0|0,0
;   overrideFirmwareConfiguration,0
;   firmwareTypeOverride,RepRap (Marlin/Repetier/Sprinter)
;   GPXconfigOverride,r2
;   baudRateOverride,115200
;   overridePrinterModels,0
;   printerModelsOverride
;   startingGcode,G28 ; home all axes,,G1 Z5 F3000 ; lift,,G1 X5 Y10 F1500 ; move to prime,,G1 Z0.2 F3000 ; get ready to prime,,G92 E0 ; reset extrusion distance,,G1 Y80 E10 F600 ; prime nozzle,,G1 Y100 F5000 ; quick wipe
;   layerChangeGcode,
;   retractionGcode,
;   toolChangeGcode,
;   endingGcode,G28 X0 ; home x axis,,M106 S0 ; turn off cooling fan,,M104 S0 ; turn off extruder,,M140 S0 ; turn off bed,,M84 ; disable motors
;   exportFileFormat,gcode
;   celebration,0
;   celebrationSong,Random Song
;   postProcessing,
;   defaultSpeed,3600
;   outlineUnderspeed,0.5
;   solidInfillUnderspeed,0.8
;   supportUnderspeed,0.8
;   rapidXYspeed,4800
;   rapidZspeed,1000
;   minBridgingArea,50
;   bridgingExtraInflation,0
;   bridgingExtrusionMultiplier,1
;   bridgingSpeedMultiplier,1
;   useFixedBridgingAngle,0
;   fixedBridgingAngle,0
;   applyBridgingToPerimeters,0
;   filamentDiameters,1.75|1.75|1.75|1.75|1.75|1.75
;   filamentPricesPerKg,46|46|46|46|46|46
;   filamentDensities,1.25|1.25|1.25|1.25|1.25|1.25
;   useMinPrintHeight,0
;   minPrintHeight,0
;   useMaxPrintHeight,0
;   maxPrintHeight,1
;   useDiaphragm,0
;   diaphragmLayerInterval,20
;   robustSlicing,1
;   mergeAllIntoSolid,0
;   onlyRetractWhenCrossingOutline,1
;   retractBetweenLayers,1
;   useRetractionMinTravel,0
;   retractionMinTravel,3
;   retractWhileWiping,0
;   onlyWipeOutlines,1
;   avoidCrossingOutline,0
;   maxMovementDetourFactor,3
;   toolChangeRetractionDistance,12
;   toolChangeExtraRestartDistance,-0.5
;   toolChangeRetractionSpeed,600
;   externalThinWallType,0
;   internalThinWallType,2
;   thinWallAllowedOverlapPercentage,10
;   singleExtrusionMinLength,1
;   singleExtrusionMinPrintingWidthPercentage,50
;   singleExtrusionMaxPrintingWidthPercentage,200
;   singleExtrusionEndpointExtension,0.2
;   horizontalSizeCompensation,0
G90
M82
M106 S0
M140 S60
M190 S60
M104 S205 T0
M109 S205 T0
G28 ; home all axes
G1 Z5 F3000 ; lift
G1 X5 Y10 F1500 ; move to prime
G1 Z0.2 F3000 ; get ready to prime
G92 E0 ; reset extrusion distance
G1 Y80 E10 F600 ; prime nozzle
G1 Y100 F5000 ; quick wipe
G92 E0
G1 E-5.0000 F1800
G1 Z1.190 F1000
; process Process1
; layer 1, Z = 0.190
T0
; tool H0.200 W0.504
; skirt
G1 X42.708 Y52.662 F4800
G1 Z0.190 F1000
G1 E0.0000 F540
G92 E0
G1 X43.010 Y52.640 E0.0127 F1440
G1 X43.425 Y52.669 E0.0302
G1 X43.647 Y52.707 E0.0396
G1 X44.211 Y52.867 E0.0641
G1 X44.451 Y52.968 E0.0751
G1 X44.722 Y53.122 E0.0881
G1 X44.774 Y52.986 E0.0943
G1 X45.071 Y52.421 E0.1210
G1 X45.221 Y52.204 E0.1321
G1 X45.631 Y51.744 E0.1579
G1 X45.897 Y51.527 E0.1722
G1 X46.492 Y51.182 E0.2011
G1 X46.968 Y51.036 E0.2219
G1 X47.775 Y50.982 E0.2558
G1 X48.338 Y51.094 E0.2799
G1 X48.983 Y51.415 E0.3101
G1 X49.312 Y51.666 E0.3274
G1 X49.689 Y52.089 E0.3512
G1 X49.869 Y52.365 E0.3650
G1 X50.114 Y52.910 E0.3900
G1 X50.186 Y53.129 E0.3997
G1 X50.265 Y53.498 E0.4155
G1 X50.285 Y53.636 E0.4213
G1 X50.304 Y53.859 E0.4307
G1 X50.604 Y53.743 E0.4442
G1 X50.827 Y53.683 E0.4539
G1 X51.230 Y53.620 E0.4710
G1 X51.494 Y53.610 E0.4821
G1 X52.144 Y53.667 E0.5094
G1 X52.607 Y53.817 E0.5298
G1 X53.272 Y54.212 E0.5622
G1 X53.605 Y54.520 E0.5812
G1 X53.937 Y54.987 E0.6053
G1 X54.093 Y55.312 E0.6204
G1 X54.262 Y55.893 E0.6457
G1 X54.304 Y56.252 E0.6609
G1 X54.273 Y56.858 E0.6863
G1 X54.214 Y57.159 E0.6992
G1 X54.016 Y57.727 E0.7244
G1 X53.893 Y57.974 E0.7359
G1 X53.559 Y58.472 E0.7610
G1 X53.427 Y58.633 E0.7698
G1 X53.012 Y59.050 E0.7944
G1 X52.900 Y59.148 E0.8007
G1 X52.447 Y59.492 E0.8245
G1 X52.394 Y59.530 E0.8272
G1 X51.875 Y59.877 E0.8534
G1 X52.517 Y60.451 E0.8895
G1 X52.561 Y60.492 E0.8920
G1 X53.081 Y61.013 E0.9229
G1 X53.151 Y61.091 E0.9273
G1 X53.647 Y61.693 E0.9600
G1 X53.736 Y61.818 E0.9664
G1 X54.163 Y62.522 E1.0009
G1 X54.249 Y62.695 E1.0090
G1 X54.560 Y63.504 E1.0453
G1 X54.617 Y63.711 E1.0543
G1 X54.771 Y64.617 E1.0928
G1 X54.786 Y64.837 E1.1020
G1 X54.753 Y65.802 E1.1425
G1 X54.737 Y65.954 E1.1489
G1 X54.565 Y66.924 E1.1902
G1 X54.549 Y66.998 E1.1934
G1 X54.084 Y68.848 E1.2733
G1 X53.909 Y69.661 E1.3082
G1 X53.813 Y70.389 E1.3389
G1 X53.805 Y70.631 E1.3491
G1 X53.813 Y70.742 E1.3538
G1 X53.864 Y70.924 E1.3617
G1 X53.939 Y71.058 E1.3681
G1 X54.067 Y71.208 E1.3764
G1 X54.248 Y71.353 E1.3861
G1 X54.505 Y71.492 E1.3983
G1 X54.832 Y71.610 E1.4129
G1 X55.231 Y71.688 E1.4300
G1 X55.713 Y71.725 E1.4502
G1 X56.348 Y71.705 E1.4768
G1 X56.964 Y71.654 E1.5027
G1 X58.521 Y71.445 E1.5686
G1 X62.161 Y70.868 E1.7230
G1 X62.234 Y70.859 E1.7261
G1 X66.387 Y70.486 E1.9008
G1 X66.460 Y70.482 E1.9039
G1 X68.679 Y70.432 E1.9969
G1 X68.736 Y70.432 E1.9993
G1 X70.983 Y70.501 E2.0935
G1 X71.040 Y70.504 E2.0959
G1 X75.214 Y70.849 E2.2714
G1 X75.992 Y70.881 E2.3041
G1 X76.591 Y70.862 E2.3292
G1 X76.666 Y70.851 E2.3324
G1 X76.666 Y70.848 E2.3325
G1 X76.639 Y70.466 E2.3485
G1 X76.554 Y69.970 E2.3696
G1 X76.413 Y69.412 E2.3937
G1 X76.227 Y68.832 E2.4193
G1 X75.736 Y67.579 E2.4756
G1 X74.608 Y65.143 E2.5882
G1 X74.586 Y65.091 E2.5905
G1 X74.092 Y63.860 E2.6461
G1 X74.049 Y63.731 E2.6518
G1 X73.723 Y62.476 E2.7061
G1 X73.695 Y62.326 E2.7125
G1 X73.614 Y61.624 E2.7422
G1 X73.608 Y61.480 E2.7482
G1 X73.632 Y60.243 E2.8001
G1 X73.641 Y60.123 E2.8051
G1 X73.866 Y58.401 E2.8779
G1 X73.116 Y58.805 E2.9136
G1 X72.972 Y58.870 E2.9202
G1 X72.159 Y59.165 E2.9564
G1 X71.906 Y59.223 E2.9673
G1 X71.231 Y59.296 E2.9958
G1 X70.852 Y59.271 E3.0117
G1 X70.138 Y59.094 E3.0425
G1 X69.810 Y58.952 E3.0575
G1 X69.431 Y58.707 E3.0764
G1 X69.216 Y58.525 E3.0882
G1 X68.856 Y58.129 E3.1107
G1 X68.641 Y57.776 E3.1280
G1 X68.404 Y57.137 E3.1565
G1 X68.337 Y56.695 E3.1752
G1 X68.376 Y56.008 E3.2041
G1 X68.458 Y55.651 E3.2194
G1 X68.713 Y55.037 E3.2473
G1 X68.853 Y54.795 E3.2590
G1 X69.262 Y54.260 E3.2872
G1 X69.281 Y54.240 E3.2884
G1 X68.981 Y54.077 E3.3027
G1 X68.729 Y53.889 E3.3159
G1 X68.284 Y53.442 E3.3423
G1 X68.009 Y52.979 E3.3649
G1 X67.769 Y52.167 E3.4004
G1 X67.801 Y51.445 E3.4307
G1 X68.115 Y50.650 E3.4665
G1 X68.429 Y50.214 E3.4890
G1 X69.041 Y49.698 E3.5226
G1 X69.305 Y49.534 E3.5356
G1 X69.905 Y49.272 E3.5630
G1 X70.092 Y49.209 E3.5713
G1 X70.724 Y49.062 E3.5985
G1 X70.825 Y49.043 E3.6028
G1 X71.218 Y48.990 E3.6194
G1 X71.360 Y48.980 E3.6254
G1 X72.072 Y48.978 E3.6552
G1 X71.954 Y48.807 E3.6639
G1 X71.902 Y48.724 E3.6680
G1 X71.550 Y48.099 E3.6981
G1 X71.489 Y47.972 E3.7040
G1 X71.333 Y47.583 E3.7215
G1 X71.283 Y47.424 E3.7285
G1 X71.137 Y46.795 E3.7556
G1 X71.110 Y46.596 E3.7640
G1 X71.093 Y46.198 E3.7807
G1 X71.103 Y46.000 E3.7890
G1 X71.171 Y45.520 E3.8093
G1 X71.232 Y45.286 E3.8194
G1 X71.383 Y44.890 E3.8372
G1 X71.524 Y44.633 E3.8495
G1 X71.883 Y44.148 E3.8748
G1 X72.254 Y43.830 E3.8953
G1 X72.924 Y43.478 E3.9270
G1 X73.396 Y43.354 E3.9474
G1 X74.034 Y43.332 E3.9742
G1 X74.375 Y43.376 E3.9886
G1 X74.924 Y43.536 E4.0126
G1 X75.173 Y43.644 E4.0239
G1 X75.672 Y43.939 E4.0482
G1 X75.832 Y44.055 E4.0565
G1 X76.252 Y44.421 E4.0798
G1 X76.364 Y44.535 E4.0866
G1 X76.496 Y44.690 E4.0951
G1 X76.539 Y44.450 E4.1053
G1 X76.559 Y44.364 E4.1090
G1 X76.685 Y43.890 E4.1295
G1 X76.724 Y43.771 E4.1348
G1 X76.986 Y43.108 E4.1647
G1 X77.094 Y42.903 E4.1744
G1 X77.526 Y42.259 E4.2069
G1 X77.720 Y42.040 E4.2191
G1 X78.216 Y41.614 E4.2466
G1 X78.432 Y41.469 E4.2575
G1 X78.862 Y41.251 E4.2777
G1 X79.121 Y41.159 E4.2892
G1 X79.688 Y41.035 E4.3135
G1 X79.974 Y41.011 E4.3255
G1 X80.453 Y41.035 E4.3456
G1 X80.730 Y41.085 E4.3574
G1 X81.297 Y41.267 E4.3824
G1 X81.580 Y41.405 E4.3956
G1 X82.067 Y41.740 E4.4203
G1 X82.246 Y41.893 E4.4302
G1 X82.555 Y42.224 E4.4492
G1 X82.684 Y42.393 E4.4581
G1 X82.986 Y42.882 E4.4822
G1 X83.072 Y43.053 E4.4902
G1 X83.246 Y43.492 E4.5100
G1 X83.303 Y43.691 E4.5187
G1 X83.457 Y44.509 E4.5536
G1 X83.475 Y44.730 E4.5629
G1 X83.457 Y45.634 E4.6007
G1 X83.447 Y45.763 E4.6062
G1 X83.317 Y46.683 E4.6451
G1 X83.303 Y46.761 E4.6484
G1 X82.864 Y48.786 E4.7352
G1 X83.355 Y48.698 E4.7561
G1 X83.412 Y48.689 E4.7585
G1 X84.122 Y48.600 E4.7886
G1 X84.244 Y48.592 E4.7936
G1 X84.831 Y48.585 E4.8183
G1 X84.995 Y48.596 E4.8251
G1 X85.562 Y48.676 E4.8491
G1 X85.806 Y48.740 E4.8597
G1 X86.487 Y49.007 E4.8904
G1 X86.745 Y49.152 E4.9028
G1 X87.311 Y49.581 E4.9325
G1 X87.525 Y49.795 E4.9452
G1 X87.911 Y50.311 E4.9722
G1 X88.031 Y50.513 E4.9821
G1 X88.204 Y50.894 E4.9996
G1 X88.280 Y51.129 E5.0100
G1 X88.406 Y51.761 E5.0369
G1 X88.416 Y52.130 E5.0524
G1 X88.318 Y52.808 E5.0812
G1 X88.204 Y53.159 E5.0966
G1 X87.916 Y53.706 E5.1225
G1 X87.668 Y54.019 E5.1392
G1 X87.130 Y54.489 E5.1692
G1 X86.812 Y54.682 E5.1847
G1 X86.284 Y54.889 E5.2085
G1 X86.098 Y54.944 E5.2167
G1 X85.720 Y55.018 E5.2328
G1 X85.577 Y55.037 E5.2389
G1 X84.944 Y55.076 E5.2654
G1 X84.806 Y55.075 E5.2712
G1 X82.450 Y54.919 E5.3702
G1 X82.244 Y54.923 E5.3788
G1 X81.170 Y58.175 E5.5223
G1 X80.895 Y59.100 E5.5628
G1 X80.807 Y59.496 E5.5798
G1 X80.744 Y59.901 E5.5970
G1 X80.713 Y60.298 E5.6136
G1 X80.716 Y60.705 E5.6307
G1 X80.758 Y61.142 E5.6491
G1 X80.834 Y61.581 E5.6677
G1 X81.138 Y62.658 E5.7147
G1 X81.595 Y63.786 E5.7657
G1 X82.213 Y64.976 E5.8219
G1 X82.552 Y65.537 E5.8493
G1 X82.917 Y66.079 E5.8767
G1 X83.292 Y66.554 E5.9021
G1 X83.719 Y66.992 E5.9277
G1 X83.880 Y67.130 E5.9366
G1 X84.408 Y67.495 E5.9635
G1 X84.623 Y67.610 E5.9737
G1 X85.084 Y67.806 E5.9947
G1 X85.452 Y67.917 E6.0108
G1 X86.082 Y68.055 E6.0378
G1 X86.555 Y68.124 E6.0579
G1 X86.924 Y68.160 E6.0734
G1 X87.936 Y68.191 E6.1158
G1 X89.284 Y68.084 E6.1725
G1 X90.961 Y67.907 E6.2432
G1 X97.587 Y66.935 E6.5238
G1 X97.626 Y66.930 E6.5255
G1 X101.262 Y66.533 E6.6788
G1 X101.338 Y66.527 E6.6819
G1 X105.013 Y66.384 E6.8361
G1 X105.097 Y66.384 E6.8396
G1 X106.936 Y66.454 E6.9167
G1 X107.003 Y66.458 E6.9196
G1 X108.795 Y66.639 E6.9950
G1 X108.860 Y66.647 E6.9978
G1 X110.608 Y66.931 E7.0720
G1 X110.670 Y66.943 E7.0747
G1 X112.388 Y67.327 E7.1484
G1 X112.475 Y67.350 E7.1522
G1 X115.730 Y68.367 E7.2951
G1 X115.832 Y68.404 E7.2996
G1 X118.917 Y69.719 E7.4402
G1 X119.001 Y69.759 E7.4441
G1 X121.899 Y71.303 E7.5817
G1 X121.969 Y71.344 E7.5851
G1 X124.675 Y73.057 E7.7193
G1 X124.733 Y73.097 E7.7223
G1 X127.224 Y74.913 E7.8515
G1 X127.276 Y74.953 E7.8542
G1 X129.506 Y76.796 E7.9755
G1 X129.552 Y76.836 E7.9780
G1 X131.482 Y78.623 E8.0882
G1 X131.528 Y78.667 E8.0909
G1 X133.113 Y80.317 E8.1868
G1 X133.153 Y80.361 E8.1893
G1 X133.823 Y81.141 E8.2323
G1 X133.869 Y81.199 E8.2355
G1 X134.723 Y82.342 E8.2952
G1 X134.773 Y82.415 E8.2990
G1 X135.067 Y82.885 E8.3222
G1 X135.111 Y82.962 E8.3259
G1 X135.409 Y83.538 E8.3531
G1 X135.456 Y83.643 E8.3579
G1 X135.614 Y84.050 E8.3762
G1 X135.653 Y84.172 E8.3815
G1 X135.758 Y84.579 E8.3992
G1 X135.788 Y84.755 E8.4067
G1 X135.828 Y85.209 E8.4257
G1 X135.815 Y85.493 E8.4377
G1 X135.715 Y86.054 E8.4616
G1 X135.574 Y86.428 E8.4783
G1 X135.280 Y86.913 E8.5021
G1 X134.997 Y87.223 E8.5197
G1 X134.550 Y87.555 E8.5430
G1 X134.211 Y87.724 E8.5589
G1 X133.711 Y87.872 E8.5807
G1 X133.394 Y87.917 E8.5942
G1 X132.818 Y87.913 E8.6183
G1 X132.522 Y87.869 E8.6308
G1 X131.723 Y87.636 E8.6657
G1 X131.517 Y87.552 E8.6750
G1 X130.665 Y87.097 E8.7155
G1 X130.544 Y87.022 E8.7215
G1 X129.165 Y86.032 E8.7926
G1 X129.117 Y85.995 E8.7951
G1 X127.513 Y84.703 E8.8815
G1 X125.653 Y83.269 E8.9799
G1 X123.502 Y81.797 E9.0891
G1 X122.346 Y81.116 E9.1453
G1 X121.090 Y80.463 E9.2047
G1 X119.755 Y79.859 E9.2661
G1 X118.354 Y79.323 E9.3289
G1 X115.241 Y78.392 E9.4651
G1 X111.957 Y77.699 E9.6058
G1 X108.613 Y77.233 E9.7472
G1 X105.352 Y76.988 E9.8843
G1 X102.315 Y76.961 E10.0116
G1 X99.606 Y77.144 E10.1254
G1 X97.254 Y77.533 E10.2253
G1 X95.277 Y78.110 E10.3116
G1 X93.632 Y78.874 E10.3876
G1 X93.018 Y79.269 E10.4182
G1 X92.458 Y79.719 E10.4483
G1 X91.872 Y80.312 E10.4832
G1 X91.367 Y80.959 E10.5176
G1 X90.926 Y81.664 E10.5525
G1 X90.542 Y82.422 E10.5881
G1 X90.209 Y83.229 E10.6247
G1 X89.927 Y84.043 E10.6608
G1 X89.468 Y85.778 E10.7360
G1 X88.849 Y88.967 E10.8721
G1 X88.714 Y90.146 E10.9219
G1 X88.715 Y91.084 E10.9612
G1 X88.744 Y91.323 E10.9713
G1 X88.795 Y91.512 E10.9794
G1 X88.860 Y91.668 E10.9865
G1 X88.934 Y91.789 E10.9925
G1 X89.044 Y91.924 E10.9998
G1 X89.199 Y92.072 E11.0087
G1 X89.412 Y92.234 E11.0200
G1 X89.668 Y92.395 E11.0327
G1 X90.451 Y92.785 E11.0693
G1 X91.366 Y93.146 E11.1105
