;FLAVOR:Marlin
;TIME:11674
;Filament used: 12.1947m
;Layer height: 0.2
;Generated with Cura_SteamEngine 3.4.1
M190 S50
M104 S195
M109 S195
M82 ;absolute extrusion mode
G28 ;Home
G1 Z15.0 F6000 ;Move the platform down 15mm
;Prime the extruder
G92 E0
G1 F200 E3
G92 E0
G92 E0
G1 F1500 E-10
;LAYER_COUNT:500
;LAYER:0
M107
G0 F1500 X39.384 Y40.435 Z0.3
;TYPE:SKIRT
G1 F1500 E0
G1 F1200 X40.163 Y39.689 E0.04708
G1 X44.992 Y35.355 E0.33034
G1 X45.875 Y34.616 E0.38061
G1 X46.807 Y33.94 E0.43087
G1 X47.725 Y33.365 E0.47815
G1 X53.369 Y30.08 E0.76323
G1 X54.384 Y29.536 E0.8135
G1 X55.434 Y29.063 E0.86377
G1 X56.514 Y28.665 E0.91402
G1 X57.619 Y28.342 E0.96428
G1 X58.744 Y28.097 E1.01454
G1 X59.883 Y27.931 E1.06478
G1 X61.031 Y27.844 E1.11504
G1 X62.183 Y27.837 E1.16533
G1 X63.477 Y27.925 E1.22195
G1 X68.172 Y28.429 E1.42808
G1 X72.918 Y28.681 E1.63556
G1 X77.635 Y28.664 E1.84147
G1 X82.404 Y28.377 E2.05004
G1 X86.48 Y27.931 E2.22903
G1 X87.628 Y27.846 E2.27928
G1 X88.78 Y27.841 E2.32957
G1 X89.929 Y27.915 E2.37984
G1 X91.07 Y28.069 E2.4301
G1 X92.197 Y28.302 E2.48034
G1 X93.306 Y28.613 E2.53062
G1 X94.39 Y29 E2.58086
G1 X95.445 Y29.461 E2.63112
G1 X96.589 Y30.065 E2.68759
G1 X102.212 Y33.322 E2.97127
G1 X103.187 Y33.934 E3.02152
G1 X104.118 Y34.611 E3.07177
G1 X104.948 Y35.306 E3.11903
G1 X109.806 Y39.647 E3.40343
G1 X110.638 Y40.443 E3.45369
G1 X111.412 Y41.295 E3.50394
G1 X112.125 Y42.199 E3.5542
G1 X112.773 Y43.151 E3.60448
G1 X113.354 Y44.145 E3.65474
G1 X113.865 Y45.177 E3.70501
G1 X114.302 Y46.242 E3.75526
G1 X114.665 Y47.334 E3.8055
G1 X115.026 Y48.808 E3.87174
G1 X115.43 Y50.864 E3.96321
G1 X116.548 Y55.568 E4.17428
G1 X117.903 Y60.108 E4.38111
G1 X119.487 Y64.494 E4.58468
G1 X122.176 Y70.681 E4.87917
G1 X122.598 Y71.753 E4.92946
G1 X122.945 Y72.851 E4.97973
G1 X123.214 Y73.97 E5.02997
G1 X123.406 Y75.105 E5.08022
G1 X123.518 Y76.251 E5.13049
G1 X123.55 Y77.402 E5.18076
G1 X123.502 Y78.552 E5.231
G1 X123.374 Y79.697 E5.2813
G1 X123.181 Y80.766 E5.32872
G1 X121.817 Y87.122 E5.6125
G1 X121.536 Y88.238 E5.66274
G1 X121.179 Y89.333 E5.71301
G1 X120.779 Y90.326 E5.75975
G1 X118.153 Y96.287 E6.0441
G1 X117.653 Y97.324 E6.09436
G1 X117.082 Y98.324 E6.14463
G1 X116.442 Y99.281 E6.19488
G1 X115.738 Y100.192 E6.24514
G1 X114.972 Y101.052 E6.29542
G1 X114.149 Y101.856 E6.34564
G1 X113.271 Y102.602 E6.39594
G1 X112.344 Y103.285 E6.4462
G1 X111.032 Y104.096 E6.51354
G1 X109.26 Y105.08 E6.60202
G1 X105.108 Y107.609 E6.81424
G1 X101.234 Y110.281 E7.01968
G1 X97.545 Y113.145 E7.22356
G1 X92.461 Y117.641 E7.51983
G1 X91.573 Y118.374 E7.5701
G1 X90.636 Y119.043 E7.62036
G1 X89.654 Y119.645 E7.67064
G1 X88.634 Y120.178 E7.72088
G1 X87.579 Y120.638 E7.77112
G1 X86.494 Y121.024 E7.82139
G1 X85.385 Y121.334 E7.87166
G1 X84.257 Y121.567 E7.92194
G1 X83.183 Y121.713 E7.96926
G1 X76.726 Y122.38 E8.25263
G1 X75.577 Y122.459 E8.30291
G1 X74.426 Y122.457 E8.35315
G1 X73.319 Y122.38 E8.40159
G1 X66.809 Y121.707 E8.6873
G1 X65.668 Y121.549 E8.73758
G1 X64.541 Y121.312 E8.78785
G1 X63.434 Y120.998 E8.83809
G1 X62.351 Y120.607 E8.88835
G1 X61.298 Y120.142 E8.9386
G1 X60.279 Y119.605 E8.98888
G1 X59.3 Y118.999 E9.03914
G1 X58.366 Y118.326 E9.0894
G1 X57.215 Y117.348 E9.15533
G1 X55.763 Y115.996 E9.24194
G1 X52.084 Y112.837 E9.45363
G1 X48.327 Y109.962 E9.66015
G1 X44.485 Y107.352 E9.86291
G1 X38.613 Y103.891 E10.16045
G1 X37.642 Y103.272 E10.21072
G1 X36.716 Y102.587 E10.261
G1 X35.84 Y101.84 E10.31126
G1 X35.018 Y101.034 E10.36152
G1 X34.255 Y100.172 E10.41177
G1 X33.552 Y99.26 E10.46204
G1 X32.915 Y98.301 E10.5123
G1 X32.346 Y97.3 E10.56256
G1 X31.876 Y96.327 E10.60973
G1 X29.246 Y90.392 E10.89312
G1 X28.817 Y89.324 E10.94336
G1 X28.462 Y88.229 E10.99361
G1 X28.201 Y87.188 E11.04046
G1 X26.819 Y80.812 E11.32526
G1 X26.614 Y79.679 E11.37552
G1 X26.489 Y78.535 E11.42576
G1 X26.443 Y77.384 E11.47605
G1 X26.477 Y76.233 E11.52631
G1 X26.591 Y75.088 E11.57654
G1 X26.785 Y73.953 E11.62681
G1 X27.056 Y72.834 E11.67707
G1 X27.405 Y71.736 E11.72737
G1 X27.988 Y70.314 E11.79446
G1 X28.848 Y68.464 E11.88352
G1 X30.722 Y63.974 E12.09591
G1 X32.287 Y59.526 E12.30175
G1 X33.586 Y55.041 E12.50558
G1 X35.053 Y48.432 E12.80111
G1 X35.341 Y47.318 E12.85134
G1 X35.706 Y46.226 E12.90161
G1 X36.146 Y45.162 E12.95187
G1 X36.659 Y44.131 E13.00214
G1 X37.242 Y43.138 E13.05241
G1 X37.893 Y42.188 E13.10268
G1 X38.608 Y41.286 E13.15293
G1 X39.384 Y40.435 E13.2032
G0 F1500 X39.702 Y40.611
G1 F1200 X40.397 Y39.949 E13.2451
G1 X45.226 Y35.615 E13.52836
G1 X46.1 Y34.884 E13.5781
G1 X47.023 Y34.217 E13.62781
G1 X47.901 Y33.667 E13.67304
G1 X53.545 Y30.382 E13.95812
G1 X54.549 Y29.844 E14.00784
G1 X55.589 Y29.378 E14.05759
G1 X56.658 Y28.986 E14.10729
G1 X57.752 Y28.669 E14.15702
G1 X58.866 Y28.431 E14.20674
G1 X59.994 Y28.271 E14.25648
G1 X61.13 Y28.19 E14.30619
G1 X62.269 Y28.19 E14.35592
G1 X63.439 Y28.273 E14.40712
G1 X68.152 Y28.779 E14.61404
G1 X72.901 Y29.031 E14.82165
G1 X77.639 Y29.014 E15.02848
G1 X82.442 Y28.724 E15.23853
G1 X86.518 Y28.279 E15.41752
G1 X87.654 Y28.195 E15.46725
G1 X88.793 Y28.191 E15.51697
G1 X89.93 Y28.267 E15.56672
G1 X91.058 Y28.422 E15.61642
G1 X92.173 Y28.657 E15.66616
G1 X93.269 Y28.969 E15.71591
G1 X94.34 Y29.357 E15.76564
G1 X95.381 Y29.819 E15.81536
G1 X96.413 Y30.368 E15.86638
G1 X102.036 Y33.625 E16.15005
G1 X103.001 Y34.23 E16.19978
G1 X103.922 Y34.902 E16.24955
G1 X104.715 Y35.566 E16.2947
G1 X109.573 Y39.907 E16.5791
G1 X110.395 Y40.696 E16.62884
G1 X111.16 Y41.54 E16.67856
G1 X111.864 Y42.436 E16.72831
G1 X112.503 Y43.379 E16.77803
G1 X113.075 Y44.364 E16.82776
G1 X113.575 Y45.387 E16.87746
G1 X114.003 Y46.443 E16.9272
G1 X114.356 Y47.526 E16.97693
G1 X114.682 Y48.876 E17.03756
G1 X115.087 Y50.935 E17.12916
G1 X116.206 Y55.644 E17.34045
G1 X117.572 Y60.222 E17.54901
G1 X119.163 Y64.628 E17.7535
G1 X121.855 Y70.821 E18.04829
G1 X122.273 Y71.881 E18.09803
G1 X122.614 Y72.968 E18.14776
G1 X122.879 Y74.076 E18.19749
G1 X123.065 Y75.199 E18.24718
G1 X123.172 Y76.333 E18.29691
G1 X123.199 Y77.472 E18.34664
G1 X123.146 Y78.61 E18.39638
G1 X123.013 Y79.741 E18.44609
G1 X122.839 Y80.692 E18.48829
G1 X121.475 Y87.048 E18.77207
G1 X121.197 Y88.153 E18.82182
G1 X120.842 Y89.236 E18.87157
G1 X120.459 Y90.185 E18.91624
G1 X117.833 Y96.146 E19.20059
G1 X117.338 Y97.172 E19.25032
G1 X116.771 Y98.16 E19.30005
G1 X116.137 Y99.106 E19.34976
G1 X115.438 Y100.006 E19.39951
G1 X114.677 Y100.854 E19.44925
G1 X113.859 Y101.647 E19.49898
G1 X112.988 Y102.38 E19.54868
G1 X112.067 Y103.05 E19.5984
G1 X110.862 Y103.79 E19.66013
G1 X109.084 Y104.777 E19.7489
G1 X104.917 Y107.315 E19.96189
G1 X101.027 Y109.998 E20.16818
G1 X97.322 Y112.874 E20.37293
G1 X92.229 Y117.379 E20.66975
G1 X91.35 Y118.104 E20.71949
G1 X90.422 Y118.764 E20.76921
G1 X89.45 Y119.358 E20.81893
G1 X88.439 Y119.883 E20.86866
G1 X87.393 Y120.335 E20.91841
G1 X86.319 Y120.713 E20.96811
G1 X85.22 Y121.014 E21.01785
G1 X84.103 Y121.238 E21.06758
G1 X83.147 Y121.365 E21.10968
G1 X76.69 Y122.032 E21.39306
G1 X75.554 Y122.109 E21.44276
G1 X74.415 Y122.107 E21.49248
G1 X73.355 Y122.032 E21.53887
G1 X66.845 Y121.359 E21.82457
G1 X65.716 Y121.202 E21.87433
G1 X64.602 Y120.967 E21.92403
G1 X63.507 Y120.653 E21.97376
G1 X62.436 Y120.264 E22.0235
G1 X61.395 Y119.801 E22.07324
G1 X60.39 Y119.265 E22.12296
G1 X59.425 Y118.661 E22.17266
G1 X58.504 Y117.99 E22.2224
G1 X57.453 Y117.092 E22.28275
G1 X55.982 Y115.722 E22.3705
G1 X52.307 Y112.566 E22.58197
G1 X48.539 Y109.683 E22.78908
G1 X44.668 Y107.054 E22.99335
G1 X38.79 Y103.589 E23.29121
G1 X37.83 Y102.977 E23.34091
G1 X36.915 Y102.298 E23.39065
G1 X36.05 Y101.557 E23.44038
G1 X35.239 Y100.757 E23.4901
G1 X34.486 Y99.902 E23.53984
G1 X33.795 Y98.997 E23.58955
G1 X33.169 Y98.045 E23.63928
G1 X32.611 Y97.052 E23.68901
G1 X32.196 Y96.185 E23.73097
G1 X29.566 Y90.25 E24.01435
G1 X29.142 Y89.193 E24.06407
G1 X28.792 Y88.109 E24.1138
G1 X28.543 Y87.114 E24.15857
G1 X27.161 Y80.738 E24.44337
G1 X26.959 Y79.617 E24.4931
G1 X26.836 Y78.484 E24.54285
G1 X26.793 Y77.346 E24.59256
G1 X26.83 Y76.208 E24.64226
G1 X26.946 Y75.074 E24.69203
G1 X27.142 Y73.952 E24.74175
G1 X27.416 Y72.847 E24.79145
G1 X27.767 Y71.763 E24.84119
G1 X28.305 Y70.461 E24.90268
G1 X29.175 Y68.59 E24.99276
G1 X31.047 Y64.104 E25.20496
G1 X32.622 Y59.63 E25.41201
G1 X33.923 Y55.137 E25.61621
G1 X35.394 Y48.508 E25.91263
G1 X35.68 Y47.406 E25.96233
G1 X36.043 Y46.326 E26.01207
G1 X36.48 Y45.274 E26.0618
G1 X36.99 Y44.255 E26.11154
G1 X37.57 Y43.275 E26.16125
G1 X38.218 Y42.338 E26.21098
G1 X38.929 Y41.448 E26.26071
G1 X39.702 Y40.611 E26.31045
G0 F1500 X40.019 Y40.788
G1 F1200 X40.631 Y40.209 E26.34723
G1 X45.46 Y35.875 E26.63048
G1 X46.324 Y35.153 E26.67963
G1 X47.238 Y34.494 E26.72882
G1 X48.077 Y33.97 E26.77201
G1 X53.721 Y30.685 E27.05708
G1 X54.715 Y30.153 E27.1063
G1 X55.743 Y29.693 E27.15546
G1 X56.802 Y29.307 E27.20467
G1 X57.885 Y28.997 E27.25384
G1 X58.988 Y28.765 E27.30305
G1 X60.104 Y28.611 E27.35223
G1 X61.228 Y28.537 E27.4014
G1 X62.355 Y28.543 E27.4506
G1 X63.402 Y28.621 E27.49643
G1 X68.115 Y29.127 E27.70335
G1 X72.901 Y29.381 E27.91258
G1 X77.661 Y29.364 E28.12037
G1 X82.46 Y29.075 E28.33025
G1 X86.556 Y28.627 E28.51012
G1 X87.68 Y28.544 E28.55932
G1 X88.807 Y28.542 E28.60852
G1 X89.931 Y28.619 E28.6577
G1 X91.047 Y28.776 E28.7069
G1 X92.148 Y29.011 E28.75604
G1 X93.231 Y29.324 E28.80525
G1 X94.288 Y29.714 E28.85444
G1 X95.315 Y30.177 E28.90361
G1 X96.238 Y30.671 E28.94932
G1 X101.861 Y33.928 E29.23299
G1 X102.815 Y34.527 E29.28216
G1 X103.725 Y35.192 E29.33136
G1 X104.482 Y35.827 E29.37449
G1 X109.34 Y40.168 E29.6589
G1 X110.153 Y40.949 E29.70811
G1 X110.908 Y41.784 E29.75725
G1 X111.603 Y42.672 E29.80648
G1 X112.233 Y43.606 E29.85566
G1 X112.795 Y44.583 E29.90486
G1 X113.286 Y45.597 E29.95404
G1 X113.704 Y46.643 E30.00322
G1 X114.047 Y47.717 E30.05243
G1 X114.339 Y48.943 E30.10745
G1 X114.745 Y51.009 E30.19937
G1 X115.872 Y55.752 E30.41218
G1 X117.24 Y60.336 E30.62101
G1 X118.832 Y64.743 E30.82556
G1 X121.534 Y70.96 E31.12148
G1 X121.947 Y72.009 E31.1707
G1 X122.283 Y73.084 E31.21986
G1 X122.543 Y74.181 E31.26908
G1 X122.724 Y75.293 E31.31826
G1 X122.826 Y76.415 E31.36744
G1 X122.848 Y77.542 E31.41665
G1 X122.79 Y78.667 E31.46583
G1 X122.652 Y79.785 E31.515
G1 X122.497 Y80.619 E31.55203
G1 X121.133 Y86.975 E31.83581
G1 X120.857 Y88.068 E31.88502
G1 X120.505 Y89.138 E31.9342
G1 X120.139 Y90.044 E31.97685
G1 X117.513 Y96.005 E32.26121
G1 X117.022 Y97.019 E32.31039
G1 X116.461 Y97.996 E32.35957
G1 X115.832 Y98.931 E32.40876
G1 X115.138 Y99.819 E32.45796
G1 X114.383 Y100.655 E32.50713
G1 X113.57 Y101.436 E32.55635
G1 X112.704 Y102.157 E32.60554
G1 X111.79 Y102.815 E32.6547
G1 X110.692 Y103.484 E32.71083
G1 X108.908 Y104.474 E32.7999
G1 X104.726 Y107.021 E33.01365
G1 X100.823 Y109.713 E33.22063
G1 X97.098 Y112.606 E33.42652
G1 X91.997 Y117.117 E33.72378
G1 X91.127 Y117.833 E33.77297
G1 X90.209 Y118.486 E33.82215
G1 X89.246 Y119.072 E33.87136
G1 X88.245 Y119.588 E33.92052
G1 X87.209 Y120.031 E33.96971
G1 X86.144 Y120.4 E34.01891
G1 X85.056 Y120.693 E34.0681
G1 X83.95 Y120.908 E34.11728
G1 X83.111 Y121.017 E34.15422
G1 X76.654 Y121.684 E34.43759
G1 X75.53 Y121.76 E34.48677
G1 X74.403 Y121.756 E34.53597
G1 X73.391 Y121.684 E34.58026
G1 X66.881 Y121.011 E34.86596
G1 X65.765 Y120.855 E34.91515
G1 X64.662 Y120.621 E34.96437
G1 X63.58 Y120.309 E35.01353
G1 X62.522 Y119.921 E35.06272
G1 X61.494 Y119.459 E35.11192
G1 X60.502 Y118.925 E35.1611
G1 X59.55 Y118.323 E35.21027
G1 X58.643 Y117.654 E35.25947
G1 X57.692 Y116.836 E35.31423
G1 X56.227 Y115.471 E35.40164
G1 X52.526 Y112.294 E35.61457
G1 X48.738 Y109.395 E35.8228
G1 X44.858 Y106.76 E36.02754
G1 X38.968 Y103.288 E36.32601
G1 X38.018 Y102.681 E36.37523
G1 X37.114 Y102.009 E36.4244
G1 X36.26 Y101.275 E36.47356
G1 X35.46 Y100.481 E36.52276
G1 X34.718 Y99.633 E36.57195
G1 X34.038 Y98.735 E36.62112
G1 X33.424 Y97.79 E36.67032
G1 X32.878 Y96.804 E36.71952
G1 X32.516 Y96.044 E36.75627
G1 X29.886 Y90.109 E37.03965
G1 X29.467 Y89.063 E37.08884
G1 X29.122 Y87.99 E37.13804
G1 X28.885 Y87.04 E37.18079
G1 X27.503 Y80.664 E37.46559
G1 X27.304 Y79.555 E37.51477
G1 X27.184 Y78.435 E37.56395
G1 X27.143 Y77.308 E37.61318
G1 X27.182 Y76.182 E37.66236
G1 X27.302 Y75.062 E37.71153
G1 X27.5 Y73.953 E37.76071
G1 X27.777 Y72.861 E37.80989
G1 X28.13 Y71.791 E37.85908
G1 X28.623 Y70.609 E37.91498
G1 X29.484 Y68.756 E38.00418
G1 X31.374 Y64.228 E38.21837
G1 X32.955 Y59.738 E38.42617
G1 X34.264 Y55.214 E38.63177
G1 X35.736 Y48.584 E38.92824
G1 X36.019 Y47.494 E38.9774
G1 X36.379 Y46.426 E39.0266
G1 X36.813 Y45.386 E39.07579
G1 X37.321 Y44.38 E39.12499
G1 X37.898 Y43.412 E39.17419
G1 X38.542 Y42.488 E39.22335
G1 X39.251 Y41.612 E39.27255
G1 X40.019 Y40.788 E39.32172
G0 F1500 X40.337 Y40.966
G1 F1200 X40.864 Y40.47 E39.35331
G1 X45.693 Y36.136 E39.63657
G1 X46.549 Y35.422 E39.68523
G1 X47.453 Y34.771 E39.73386
G1 X48.253 Y34.272 E39.77502
G1 X53.897 Y30.987 E40.0601
G1 X54.88 Y30.462 E40.10875
G1 X55.898 Y30.008 E40.1574
G1 X56.945 Y29.628 E40.20603
G1 X58.017 Y29.325 E40.25466
G1 X59.109 Y29.099 E40.30334
G1 X60.213 Y28.952 E40.35196
G1 X61.325 Y28.885 E40.40059
G1 X62.44 Y28.897 E40.44927
G1 X63.365 Y28.969 E40.48977
G1 X68.098 Y29.477 E40.69757
G1 X72.883 Y29.731 E40.90675
G1 X77.666 Y29.714 E41.11554
G1 X82.499 Y29.423 E41.32691
G1 X86.594 Y28.975 E41.50674
G1 X87.705 Y28.894 E41.55536
G1 X88.82 Y28.892 E41.60404
G1 X89.931 Y28.971 E41.65266
G1 X91.034 Y29.129 E41.7013
G1 X92.123 Y29.366 E41.74995
G1 X93.192 Y29.68 E41.79859
G1 X94.236 Y30.07 E41.84724
G1 X95.249 Y30.534 E41.89588
G1 X96.062 Y30.974 E41.93624
G1 X101.685 Y34.231 E42.21991
G1 X102.629 Y34.824 E42.26857
G1 X103.528 Y35.483 E42.31723
G1 X104.249 Y36.088 E42.35832
G1 X109.107 Y40.429 E42.64272
G1 X109.91 Y41.201 E42.69135
G1 X110.657 Y42.029 E42.74003
G1 X111.342 Y42.908 E42.78868
G1 X111.962 Y43.833 E42.83729
G1 X112.514 Y44.801 E42.88593
G1 X112.995 Y45.806 E42.93457
G1 X113.403 Y46.843 E42.98322
G1 X113.736 Y47.906 E43.03185
G1 X113.995 Y49.011 E43.08139
G1 X114.402 Y51.08 E43.17344
G1 X115.53 Y55.828 E43.38648
G1 X116.909 Y60.45 E43.59704
G1 X118.508 Y64.877 E43.80251
G1 X121.213 Y71.1 E44.09873
G1 X121.621 Y72.137 E44.14737
G1 X121.952 Y73.201 E44.19602
G1 X122.207 Y74.286 E44.24467
G1 X122.383 Y75.386 E44.2933
G1 X122.48 Y76.496 E44.34194
G1 X122.497 Y77.61 E44.39058
G1 X122.434 Y78.723 E44.43924
G1 X122.291 Y79.828 E44.48788
G1 X122.154 Y80.546 E44.51979
G1 X120.79 Y86.902 E44.80357
G1 X120.518 Y87.982 E44.85219
G1 X120.168 Y89.04 E44.90084
G1 X119.818 Y89.903 E44.94149
G1 X117.192 Y95.864 E45.22585
G1 X116.707 Y96.867 E45.27448
G1 X116.151 Y97.832 E45.3231
G1 X115.527 Y98.755 E45.37174
G1 X114.838 Y99.631 E45.42039
G1 X114.088 Y100.456 E45.46906
G1 X113.282 Y101.224 E45.51766
G1 X112.422 Y101.933 E45.56632
G1 X111.513 Y102.578 E45.61497
G1 X110.522 Y103.178 E45.66554
G1 X108.733 Y104.172 E45.75489
G1 X104.543 Y106.723 E45.96903
G1 X100.609 Y109.436 E46.17764
G1 X96.883 Y112.329 E46.38357
G1 X91.766 Y116.855 E46.68179
G1 X90.905 Y117.563 E46.73045
G1 X89.996 Y118.207 E46.77908
G1 X89.043 Y118.784 E46.82771
G1 X88.051 Y119.292 E46.87637
G1 X87.025 Y119.727 E46.92501
G1 X85.971 Y120.087 E46.97363
G1 X84.893 Y120.371 E47.0223
G1 X83.798 Y120.577 E47.07094
G1 X83.075 Y120.669 E47.10276
G1 X76.618 Y121.336 E47.38613
G1 X75.506 Y121.41 E47.43478
G1 X74.392 Y121.405 E47.48341
G1 X73.427 Y121.336 E47.52564
G1 X66.917 Y120.663 E47.81135
G1 X65.813 Y120.508 E47.86001
G1 X64.723 Y120.275 E47.90867
G1 X63.653 Y119.965 E47.9573
G1 X62.608 Y119.578 E48.00595
G1 X61.594 Y119.118 E48.05455
G1 X60.615 Y118.586 E48.10319
G1 X59.676 Y117.985 E48.15186
G1 X58.783 Y117.318 E48.20052
G1 X57.931 Y116.579 E48.24975
G1 X56.472 Y115.22 E48.33679
G1 X52.749 Y112.023 E48.55102
G1 X48.949 Y109.116 E48.75987
G1 X45.037 Y106.459 E48.96631
G1 X39.146 Y102.986 E49.26484
G1 X38.207 Y102.386 E49.31349
G1 X37.313 Y101.72 E49.36215
G1 X36.47 Y100.992 E49.41078
G1 X35.681 Y100.206 E49.45939
G1 X34.95 Y99.364 E49.50807
G1 X34.282 Y98.473 E49.55668
G1 X33.679 Y97.536 E49.60532
G1 X33.145 Y96.557 E49.65401
