; G-Code generated by Simplify3D(R) Version 4.0.0
; Oct 11, 2019 at 6:25:49 PM
; Settings Summary
;   processName,Process1
;   applyToModels,Vase
;   profileName,Z6 (modified)
;   profileVersion,2019-10-11 12:28:38
;   baseProfile,Default (modified)
;   printMaterial,PLA
;   printQuality,Medium
;   printExtruders,
;   extruderName,Primary Extruder
;   extruderToolheadNumber,0
;   extruderDiameter,0.4
;   extruderAutoWidth,1
;   extruderWidth,0.48
;   extrusionMultiplier,1
;   extruderUseRetract,1
;   extruderRetractionDistance,5
;   extruderExtraRestartDistance,0
;   extruderRetractionZLift,1
;   extruderRetractionSpeed,1800
;   extruderUseCoasting,1
;   extruderCoastingDistance,0.2
;   extruderUseWipe,1
;   extruderWipeDistance,5
;   primaryExtruder,0
;   layerHeight,0.2
;   topSolidLayers,0
;   bottomSolidLayers,4
;   perimeterOutlines,3
;   printPerimetersInsideOut,0
;   startPointOption,3
;   startPointOriginX,150
;   startPointOriginY,150
;   sequentialIslands,0
;   spiralVaseMode,0
;   firstLayerHeightPercentage,95
;   firstLayerWidthPercentage,105
;   firstLayerUnderspeed,0.4
;   useRaft,0
;   raftExtruder,0
;   raftTopLayers,3
;   raftBaseLayers,2
;   raftOffset,3
;   raftSeparationDistance,0.14
;   raftTopInfill,100
;   aboveRaftSpeedMultiplier,0.3
;   useSkirt,1
;   skirtExtruder,999
;   skirtLayers,2
;   skirtOutlines,5
;   skirtOffset,0
;   usePrimePillar,0
;   primePillarExtruder,999
;   primePillarWidth,12
;   primePillarLocation,7
;   primePillarSpeedMultiplier,1
;   useOozeShield,0
;   oozeShieldExtruder,999
;   oozeShieldOffset,2
;   oozeShieldOutlines,1
;   oozeShieldSidewallShape,1
;   oozeShieldSidewallAngle,30
;   oozeShieldSpeedMultiplier,1
;   infillExtruder,0
;   internalInfillPattern,Rectilinear
;   externalInfillPattern,Rectilinear
;   infillPercentage,0
;   outlineOverlapPercentage,15
;   infillExtrusionWidthPercentage,100
;   minInfillLength,5
;   infillLayerInterval,1
;   internalInfillAngles,45,-45
;   overlapInternalInfillAngles,0
;   externalInfillAngles,45,-45
;   generateSupport,0
;   supportExtruder,0
;   supportInfillPercentage,15
;   supportExtraInflation,0
;   supportBaseLayers,2
;   denseSupportExtruder,0
;   denseSupportLayers,2
;   denseSupportInfillPercentage,70
;   supportLayerInterval,1
;   supportHorizontalPartOffset,0.3
;   supportUpperSeparationLayers,1
;   supportLowerSeparationLayers,1
;   supportType,1
;   supportGridSpacing,4
;   maxOverhangAngle,60
;   supportAngles,45
;   temperatureName,Primary Extruder,bed
;   temperatureNumber,0,0
;   temperatureSetpointCount,1,1
;   temperatureSetpointLayers,1,1
;   temperatureSetpointTemperatures,205,60
;   temperatureStabilizeAtStartup,1,1
;   temperatureHeatedBed,0,1
;   temperatureRelayBetweenLayers,0,0
;   temperatureRelayBetweenLoops,0,0
;   fanLayers,1,2
;   fanSpeeds,0,100
;   blipFanToFullPower,0
;   adjustSpeedForCooling,1
;   minSpeedLayerTime,15
;   minCoolingSpeedSlowdown,25
;   increaseFanForCooling,0
;   minFanLayerTime,45
;   maxCoolingFanSpeed,100
;   increaseFanForBridging,0
;   bridgingFanSpeed,100
;   use5D,1
;   relativeEdistances,0
;   allowEaxisZeroing,1
;   independentExtruderAxes,0
;   includeM10123,0
;   stickySupport,1
;   applyToolheadOffsets,0
;   gcodeXoffset,0
;   gcodeYoffset,0
;   gcodeZoffset,0
;   overrideMachineDefinition,1
;   machineTypeOverride,0
;   strokeXoverride,150
;   strokeYoverride,150
;   strokeZoverride,150
;   originOffsetXoverride,0
;   originOffsetYoverride,0
;   originOffsetZoverride,0
;   homeXdirOverride,-1
;   homeYdirOverride,-1
;   homeZdirOverride,-1
;   flipXoverride,1
;   flipYoverride,-1
;   flipZoverride,1
;   toolheadOffsets,0,0|0,0|0,0|0,0|0,0|0,0
;   overrideFirmwareConfiguration,0
;   firmwareTypeOverride,RepRap (Marlin/Repetier/Sprinter)
;   GPXconfigOverride,r2
;   baudRateOverride,115200
;   overridePrinterModels,0
;   printerModelsOverride
;   startingGcode,G28 ; home all axes,,G1 Z5 F3000 ; lift,,G1 X5 Y10 F1500 ; move to prime,,G1 Z0.2 F3000 ; get ready to prime,,G92 E0 ; reset extrusion distance,,G1 Y80 E10 F600 ; prime nozzle,,G1 Y100 F5000 ; quick wipe
;   layerChangeGcode,
;   retractionGcode,
;   toolChangeGcode,
;   endingGcode,G28 X0 ; home x axis,,M106 S0 ; turn off cooling fan,,M104 S0 ; turn off extruder,,M140 S0 ; turn off bed,,M84 ; disable motors
;   exportFileFormat,gcode
;   celebration,0
;   celebrationSong,Random Song
;   postProcessing,
;   defaultSpeed,3600
;   outlineUnderspeed,0.5
;   solidInfillUnderspeed,0.8
;   supportUnderspeed,0.8
;   rapidXYspeed,4800
;   rapidZspeed,1000
;   minBridgingArea,50
;   bridgingExtraInflation,0
;   bridgingExtrusionMultiplier,1
;   bridgingSpeedMultiplier,1
;   useFixedBridgingAngle,0
;   fixedBridgingAngle,0
;   applyBridgingToPerimeters,0
;   filamentDiameters,1.75|1.75|1.75|1.75|1.75|1.75
;   filamentPricesPerKg,46|46|46|46|46|46
;   filamentDensities,1.25|1.25|1.25|1.25|1.25|1.25
;   useMinPrintHeight,0
;   minPrintHeight,0
;   useMaxPrintHeight,0
;   maxPrintHeight,1
;   useDiaphragm,0
;   diaphragmLayerInterval,20
;   robustSlicing,1
;   mergeAllIntoSolid,0
;   onlyRetractWhenCrossingOutline,1
;   retractBetweenLayers,1
;   useRetractionMinTravel,0
;   retractionMinTravel,3
;   retractWhileWiping,0
;   onlyWipeOutlines,1
;   avoidCrossingOutline,0
;   maxMovementDetourFactor,3
;   toolChangeRetractionDistance,12
;   toolChangeExtraRestartDistance,-0.5
;   toolChangeRetractionSpeed,600
;   externalThinWallType,0
;   internalThinWallType,2
;   thinWallAllowedOverlapPercentage,10
;   singleExtrusionMinLength,1
;   singleExtrusionMinPrintingWidthPercentage,50
;   singleExtrusionMaxPrintingWidthPercentage,200
;   singleExtrusionEndpointExtension,0.2
;   horizontalSizeCompensation,0
G90
M82
M106 S0
M140 S60
M190 S60
M104 S205 T0
M109 S205 T0
G28 ; home all axes
G1 Z5 F3000 ; lift
G1 X5 Y10 F1500 ; move to prime
G1 Z0.2 F3000 ; get ready to prime
G92 E0 ; reset extrusion distance
G1 Y80 E10 F600 ; prime nozzle
G1 Y100 F5000 ; quick wipe
G92 E0
G1 E-5.0000 F1800
G1 Z1.190 F1000
; process Process1
; layer 1, Z = 0.190
T0
; tool H0.200 W0.504
; skirt
G1 X64.142 Y63.535 F4800
G1 Z0.190 F1000
G1 E0.0000 F540
G92 E0
G1 X74.569 Y59.216 E0.4730 F1440
G1 X75.428 Y59.216 E0.5090
G1 X85.856 Y63.535 E0.9820
G1 X86.463 Y64.142 E1.0180
G1 X90.791 Y74.570 E1.4911
G1 X90.791 Y75.430 E1.5272
G1 X86.463 Y85.858 E2.0004
G1 X85.856 Y86.465 E2.0363
G1 X75.428 Y90.784 E2.5093
G1 X74.569 Y90.784 E2.5453
G1 X64.142 Y86.465 E3.0183
G1 X63.534 Y85.857 E3.0543
G1 X59.215 Y75.430 E3.5273
G1 X59.215 Y74.570 E3.5633
G1 X63.534 Y64.143 E4.0363
G1 X64.000 Y63.677 E4.0640
G1 X64.142 Y63.535 F1440
G1 X64.414 Y63.942 F4800
G92 E0
G1 X74.665 Y59.696 E0.4650 F1440
G1 X75.333 Y59.696 E0.4930
G1 X85.584 Y63.942 E0.9580
G1 X86.056 Y64.414 E0.9860
G1 X90.311 Y74.665 E1.4511
G1 X90.311 Y75.335 E1.4792
G1 X86.056 Y85.586 E1.9443
G1 X85.584 Y86.058 E1.9723
G1 X75.333 Y90.304 E2.4373
G1 X74.665 Y90.304 E2.4653
G1 X64.414 Y86.058 E2.9303
G1 X63.941 Y85.585 E2.9583
G1 X59.695 Y75.334 E3.4233
G1 X59.695 Y74.666 E3.4513
G1 X63.941 Y64.415 E3.9163
G1 X64.272 Y64.084 E3.9359
G1 X64.414 Y63.942 F1440
G1 X64.685 Y64.349 F4800
G92 E0
G1 X74.760 Y60.176 E0.4570 F1440
G1 X75.237 Y60.176 E0.4770
G1 X85.312 Y64.349 E0.9340
G1 X85.649 Y64.686 E0.9540
G1 X89.831 Y74.761 E1.4111
G1 X89.831 Y75.239 E1.4312
G1 X85.649 Y85.314 E1.8883
G1 X85.312 Y85.651 E1.9083
G1 X75.237 Y89.824 E2.3653
G1 X74.760 Y89.824 E2.3853
G1 X64.685 Y85.651 E2.8423
G1 X64.348 Y85.313 E2.8623
G1 X60.175 Y75.239 E3.3193
G1 X60.175 Y74.761 E3.3393
G1 X64.348 Y64.687 E3.7963
G1 X64.544 Y64.490 E3.8079
G1 X64.685 Y64.349 F1440
G1 X64.957 Y64.756 F4800
G92 E0
G1 X74.856 Y60.656 E0.4490 F1440
G1 X75.142 Y60.656 E0.4610
G1 X85.040 Y64.756 E0.9100
G1 X85.243 Y64.958 E0.9220
G1 X89.351 Y74.857 E1.3711
G1 X89.351 Y75.143 E1.3831
G1 X85.243 Y85.042 E1.8323
G1 X85.040 Y85.244 E1.8443
G1 X75.142 Y89.344 E2.2932
G1 X74.856 Y89.344 E2.3052
G1 X64.957 Y85.244 E2.7542
G1 X64.755 Y85.041 E2.7662
G1 X60.655 Y75.143 E3.2152
G1 X60.655 Y74.857 E3.2272
G1 X64.755 Y64.959 E3.6762
G1 X64.816 Y64.897 E3.6798
G1 X64.957 Y64.756 F1440
G1 X65.229 Y65.163 F4800
G92 E0
G1 X74.951 Y61.136 E0.4410 F1440
G1 X75.047 Y61.136 E0.4450
G1 X84.768 Y65.163 E0.8860
G1 X84.836 Y65.230 E0.8900
G1 X88.871 Y74.952 E1.3311
G1 X88.871 Y75.048 E1.3351
G1 X84.836 Y84.770 E1.7762
G1 X84.768 Y84.837 E1.7802
G1 X75.047 Y88.864 E2.2212
G1 X74.951 Y88.864 E2.2252
G1 X65.229 Y84.837 E2.6662
G1 X65.162 Y84.770 E2.6702
G1 X61.135 Y75.048 E3.1112
G1 X61.135 Y74.952 E3.1152
G1 X65.122 Y65.327 E3.5518
G1 X65.162 Y65.230 F1440
G1 X65.229 Y65.163 F1440
G92 E0
G1 E-5.0000 F1800
G1 Z1.190 F1000
; outer perimeter
G1 X84.362 Y84.364 F4800
G1 Z0.190 F1000
G1 E0.0000 F1800
G92 E0
G1 X74.999 Y88.242 E0.4247 F720
G1 X65.635 Y84.364 E0.8495
G1 X61.757 Y75.000 E1.2742
G1 X65.635 Y65.636 E1.6989
G1 X74.999 Y61.758 E2.1237
G1 X84.362 Y65.636 E2.5484
G1 X85.691 Y68.837 E2.6936
G1 X88.244 Y75.000 E2.9732
G1 X84.439 Y84.179 E3.3896
G1 X84.362 Y84.364 F720
G1 X79.743 Y86.277 F3600
; inner perimeter
G1 X83.977 Y83.978 F4800
G92 E0
G1 X74.999 Y87.697 E0.4072 F1080
G1 X66.021 Y83.978 E0.8145
G1 X62.302 Y75.000 E1.2217
G1 X66.021 Y66.022 E1.6290
G1 X74.999 Y62.303 E2.0362
G1 X83.977 Y66.022 E2.4435
G1 X85.355 Y69.343 E2.5941
G1 X87.698 Y75.000 E2.8507
G1 X84.053 Y83.793 E3.2496
G1 X83.977 Y83.978 F1080
G1 X83.591 Y83.592 F4800
G92 E0
G1 X74.999 Y87.151 E0.3897 F1080
G1 X66.407 Y83.592 E0.7795
G1 X62.848 Y75.000 E1.1692
G1 X66.407 Y66.408 E1.5590
G1 X74.999 Y62.849 E1.9487
G1 X83.591 Y66.408 E2.3385
G1 X84.760 Y69.223 E2.4662
G1 X87.153 Y75.000 E2.7282
G1 X83.668 Y83.407 E3.1097
G1 X83.591 Y83.592 F1080
; solid layer
G1 X66.967 Y83.360 F4800
G92 E0
G1 X66.638 Y83.032 E0.0195 F1152
G1 X66.134 Y81.815 E0.0747
G1 X68.184 Y83.864 E0.1961
G1 X69.400 Y84.368 E0.2513
G1 X65.630 Y80.598 E0.4747
G1 X65.126 Y79.382 E0.5299
G1 X70.617 Y84.872 E0.8553
G1 X71.834 Y85.376 E0.9105
G1 X64.622 Y78.165 E1.3379
G1 X64.118 Y76.948 E1.3931
G1 X73.051 Y85.880 E1.9225
G1 X74.267 Y86.384 E1.9777
G1 X63.614 Y75.731 E2.6090
G1 X63.311 Y75.000 E2.6422
G1 X63.395 Y74.799 E2.6513
G1 X75.200 Y86.604 E3.3510
G1 X75.704 Y86.395 E3.3738
G1 X63.604 Y74.295 E4.0910
G1 X63.812 Y73.791 E4.1138
G1 X76.208 Y86.187 E4.8485
G1 X76.712 Y85.978 E4.8713
G1 X64.021 Y73.287 E5.6235
G1 X64.230 Y72.783 E5.6463
G1 X77.216 Y85.769 E6.4160
G1 X77.720 Y85.560 E6.4388
G1 X64.439 Y72.279 E7.2260
G1 X64.647 Y71.775 E7.2488
G1 X78.224 Y85.351 E8.0535
G1 X78.728 Y85.143 E8.0763
G1 X64.856 Y71.271 E8.8985
G1 X65.065 Y70.767 E8.9213
G1 X79.232 Y84.934 E9.7610
G1 X79.736 Y84.725 E9.7838
G1 X65.274 Y70.263 E10.6409
G1 X65.482 Y69.759 E10.6638
G1 X80.240 Y84.516 E11.5384
G1 X80.744 Y84.308 E11.5613
G1 X65.691 Y69.255 E12.4534
G1 X65.900 Y68.751 E12.4763
G1 X81.248 Y84.099 E13.3859
G1 X81.752 Y83.890 E13.4087
G1 X66.109 Y68.247 E14.3359
G1 X66.317 Y67.743 E14.3587
G1 X82.256 Y83.681 E15.3033
G1 X82.760 Y83.473 E15.3262
G1 X66.526 Y67.239 E16.2883
G1 X66.735 Y66.736 E16.3111
G1 X83.263 Y83.263 E17.2907
G1 X83.472 Y82.760 E17.3135
G1 X67.239 Y66.527 E18.2756
G1 X67.743 Y66.318 E18.2985
G1 X83.681 Y82.256 E19.2430
G1 X83.890 Y81.752 E19.2659
G1 X68.247 Y66.109 E20.1930
G1 X68.751 Y65.900 E20.2158
G1 X84.099 Y81.248 E21.1254
G1 X84.308 Y80.744 E21.1483
G1 X69.255 Y65.692 E22.0404
G1 X69.759 Y65.483 E22.0633
G1 X84.517 Y80.240 E22.9379
G1 X84.726 Y79.736 E22.9607
G1 X70.263 Y65.274 E23.8178
G1 X70.767 Y65.065 E23.8407
G1 X84.934 Y79.232 E24.6803
G1 X85.143 Y78.728 E24.7032
G1 X71.271 Y64.857 E25.5253
G1 X71.775 Y64.648 E25.5482
G1 X85.352 Y78.224 E26.3528
G1 X85.561 Y77.721 E26.3757
G1 X72.279 Y64.439 E27.1628
G1 X72.783 Y64.230 E27.1857
G1 X85.770 Y77.217 E27.9554
G1 X85.979 Y76.713 E27.9782
G1 X73.287 Y64.022 E28.7304
G1 X73.791 Y63.813 E28.7533
G1 X86.188 Y76.209 E29.4879
G1 X86.396 Y75.705 E29.5108
G1 X74.295 Y63.604 E30.2280
G1 X74.799 Y63.395 E30.2508
G1 X86.605 Y75.201 E30.9505
G1 X86.689 Y75.000 E30.9597
G1 X86.386 Y74.269 E30.9928
G1 X75.734 Y63.617 E31.6241
G1 X76.951 Y64.121 E31.6793
G1 X85.882 Y73.052 E32.2086
G1 X85.378 Y71.836 E32.2638
G1 X78.168 Y64.625 E32.6911
G1 X79.385 Y65.129 E32.7463
G1 X84.874 Y70.619 E33.0717
G1 X84.370 Y69.402 E33.1269
G1 X80.601 Y65.633 E33.3502
G1 X81.818 Y66.137 E33.4054
G1 X83.864 Y68.184 E33.5267
G1 X83.359 Y66.965 E33.5820
G1 X83.176 Y66.782 E33.5928
G1 X83.035 Y66.641 F1152
G92 E0
G1 E-5.0000 F1800
G1 Z1.390 F1000
; layer 2, Z = 0.390
M106 S255
; tool H0.200 W0.480
; skirt
G1 X85.856 Y63.535 F4800
G1 Z0.390 F1000
G1 E0.0000 F1800
G92 E0
G1 X86.463 Y64.142 E0.0343 F3600
G1 X90.791 Y74.570 E0.4849
G1 X90.791 Y75.430 E0.5192
G1 X86.463 Y85.858 E0.9699
G1 X85.856 Y86.465 E1.0041
G1 X75.428 Y90.784 E1.4546
G1 X74.569 Y90.784 E1.4889
G1 X64.142 Y86.465 E1.9394
G1 X63.534 Y85.857 E1.9737
G1 X59.215 Y75.430 E2.4241
G1 X59.215 Y74.570 E2.4584
G1 X63.534 Y64.143 E2.9089
G1 X64.142 Y63.535 E2.9432
G1 X74.569 Y59.216 E3.3937
G1 X75.428 Y59.216 E3.4280
G1 X85.671 Y63.459 E3.8704
G1 X85.856 Y63.535 F3600
G1 X85.584 Y63.942 F4800
G92 E0
G1 X86.056 Y64.414 E0.0266 F3600
G1 X90.311 Y74.665 E0.4696
G1 X90.311 Y75.335 E0.4964
G1 X86.056 Y85.586 E0.9394
G1 X85.584 Y86.058 E0.9660
G1 X75.333 Y90.304 E1.4089
G1 X74.665 Y90.304 E1.4355
G1 X64.414 Y86.058 E1.8784
G1 X63.941 Y85.585 E1.9051
G1 X59.695 Y75.334 E2.3479
G1 X59.695 Y74.666 E2.3746
G1 X63.941 Y64.415 E2.8174
G1 X64.414 Y63.942 E2.8441
G1 X74.665 Y59.696 E3.2870
G1 X75.333 Y59.696 E3.3136
G1 X85.399 Y63.865 E3.7485
G1 X85.584 Y63.942 F3600
G1 X85.312 Y64.349 F4800
G92 E0
G1 X85.649 Y64.686 E0.0190 F3600
G1 X89.831 Y74.761 E0.4544
G1 X89.831 Y75.239 E0.4735
G1 X85.649 Y85.314 E0.9089
G1 X85.312 Y85.651 E0.9279
G1 X75.237 Y89.824 E1.3631
G1 X74.760 Y89.824 E1.3822
G1 X64.685 Y85.651 E1.8174
G1 X64.348 Y85.313 E1.8365
G1 X60.175 Y75.239 E2.2717
G1 X60.175 Y74.761 E2.2907
G1 X64.348 Y64.687 E2.7260
G1 X64.685 Y64.349 E2.7450
G1 X74.760 Y60.176 E3.1803
G1 X75.237 Y60.176 E3.1993
G1 X85.127 Y64.272 E3.6266
G1 X85.312 Y64.349 F3600
G1 X85.040 Y64.756 F4800
G92 E0
G1 X85.243 Y64.958 E0.0114 F3600
G1 X89.351 Y74.857 E0.4392
G1 X89.351 Y75.143 E0.4506
G1 X85.243 Y85.042 E0.8784
G1 X85.040 Y85.244 E0.8898
G1 X75.142 Y89.344 E1.3174
G1 X74.856 Y89.344 E1.3288
G1 X64.957 Y85.244 E1.7564
G1 X64.755 Y85.041 E1.7679
G1 X60.655 Y75.143 E2.1955
G1 X60.655 Y74.857 E2.2069
G1 X64.755 Y64.959 E2.6345
G1 X64.957 Y64.756 E2.6460
G1 X74.856 Y60.656 E3.0736
G1 X75.142 Y60.656 E3.0850
G1 X84.855 Y64.679 E3.5046
G1 X85.040 Y64.756 F3600
G1 X84.768 Y65.163 F4800
G92 E0
G1 X84.836 Y65.230 E0.0038 F3600
G1 X88.871 Y74.952 E0.4239
G1 X88.871 Y75.048 E0.4277
G1 X84.836 Y84.770 E0.8479
G1 X84.768 Y84.837 E0.8517
G1 X75.047 Y88.864 E1.2717
G1 X74.951 Y88.864 E1.2755
G1 X65.229 Y84.837 E1.6955
G1 X65.162 Y84.770 E1.6993
G1 X61.135 Y75.048 E2.1193
G1 X61.135 Y74.952 E2.1231
G1 X65.162 Y65.230 E2.5431
G1 X65.229 Y65.163 E2.5469
G1 X74.951 Y61.136 E2.9669
G1 X75.047 Y61.136 E2.9707
G1 X84.584 Y65.086 E3.3827
G1 X84.768 Y65.163 F3600
G92 E0
G1 E-5.0000 F1800
G1 Z1.390 F1000
; outer perimeter
G1 X84.449 Y84.450 F4800
G1 Z0.390 F1000
G1 E0.0000 F1800
G92 E0
G1 X74.999 Y88.364 E0.4082 F1800
G1 X65.549 Y84.450 E0.8165
G1 X61.635 Y75.000 E1.2247
G1 X65.549 Y65.550 E1.6330
G1 X74.999 Y61.636 E2.0412
G1 X84.449 Y65.550 E2.4495
G1 X88.371 Y75.000 E2.8578
G1 X84.525 Y84.265 E3.2582
G1 X84.449 Y84.450 F1800
G1 X79.829 Y86.363 F3600
; inner perimeter
G1 X84.082 Y84.082 F4800
G92 E0
G1 X74.999 Y87.845 E0.3924 F2700
G1 X65.916 Y84.083 E0.7848
G1 X62.154 Y75.000 E1.1771
G1 X65.916 Y65.917 E1.5695
G1 X74.999 Y62.155 E1.9619
G1 X84.082 Y65.918 E2.3543
G1 X87.852 Y75.000 E2.7467
G1 X84.158 Y83.898 E3.1313
G1 X84.082 Y84.082 F2700
G1 X83.714 Y83.715 F4800
G92 E0
G1 X74.999 Y87.325 E0.3765 F2700
G1 X66.284 Y83.715 E0.7530
G1 X62.674 Y75.000 E1.1295
G1 X66.284 Y66.285 E1.5060
G1 X74.999 Y62.675 E1.8825
G1 X83.714 Y66.285 E2.2591
G1 X87.332 Y75.000 E2.6357
G1 X83.791 Y83.530 E3.0043
G1 X83.714 Y83.715 F2700
; solid layer
G1 X83.767 Y82.525 F4800
G92 E0
G1 X82.526 Y83.766 E0.0700 F2880
